/* XPM */
static const char * const OtisLogoWithName_xpm[] = {
/* columns rows colors chars-per-pixel */
"500 134 132 2 ",
"   c #21252B",
".  c #2B262B",
"X  c #25292E",
"o  c #33272B",
"O  c #39272B",
"+  c #34282B",
"@  c #3B282B",
"#  c #272B30",
"$  c #2A2D33",
"%  c #2E3136",
"&  c #303438",
"*  c #35383D",
"=  c #383A3E",
"-  c #45292B",
";  c #4A292B",
":  c #532A2B",
">  c #5C2B2B",
",  c #622C2B",
"<  c #6A2D2A",
"1  c #742E2A",
"2  c #7A2E2B",
"3  c #3A3D41",
"4  c #3E4045",
"5  c #414346",
"6  c #44464A",
"7  c #46494C",
"8  c #494B4E",
"9  c #4D4F52",
"0  c #4E5053",
"q  c #525356",
"w  c #555759",
"e  c #56585B",
"r  c #5B5D5E",
"t  c #5D5E60",
"y  c #5F6062",
"u  c #636465",
"i  c #666768",
"p  c #6A6A6B",
"a  c #6F6F70",
"s  c #737373",
"d  c #7D7C7C",
"f  c #802F2B",
"g  c #8B2F2A",
"h  c #85302A",
"j  c #8C302B",
"k  c #95312A",
"l  c #9C322A",
"z  c #A3332A",
"x  c #AC332A",
"c  c #B3342A",
"v  c #BB352A",
"b  c #C4362A",
"n  c #CC372A",
"m  c #D2372B",
"M  c #D5382A",
"N  c #D8382A",
"B  c #807F7F",
"V  c #848482",
"C  c #888786",
"Z  c #8D8C8A",
"A  c #92908E",
"S  c #969492",
"D  c #989795",
"F  c #9A9896",
"G  c #9F9D9A",
"H  c #A09E9B",
"J  c #A3A19D",
"K  c #A4A19F",
"L  c #A5A39F",
"P  c #A4A29E",
"I  c #A9A6A3",
"U  c #ADAAA6",
"Y  c #ACAAA6",
"T  c #AEACA8",
"R  c #B0ADA9",
"E  c #B1AEAA",
"W  c #B2AFAB",
"Q  c #B1AEAA",
"!  c #B2B0AB",
"~  c #B4B1AD",
"^  c #B4B2AD",
"/  c #B7B5B0",
"(  c #B9B7B1",
")  c #B9B6B2",
"_  c #BEBAB6",
"`  c #BDB9B4",
"'  c #C0BCB6",
"]  c #C0BCB7",
"[  c #C1BEB9",
"{  c #C5C1BB",
"}  c #C6C3BC",
"|  c #C6C3BD",
" . c #C6C2BC",
".. c #C8C4BE",
"X. c #CBC7C1",
"o. c #CBC7C1",
"O. c #CECAC4",
"+. c #CDC9C3",
"@. c #D0CCC6",
"#. c #D1CCC6",
"$. c #D5CFC9",
"%. c #D5D2CB",
"&. c #D7D2CC",
"*. c #D8D3CC",
"=. c #DAD6CF",
"-. c #DAD5CE",
";. c #DFDAD2",
":. c #DFDAD4",
">. c #DFDAD3",
",. c #E1DDD4",
"<. c #E2DDD5",
"1. c #E4DFD7",
"2. c #E2DDD5",
"3. c #E5E0D8",
"4. c #E6E1D9",
"5. c #E5E0D8",
"6. c #E8E2DA",
"7. c #E9E3DB",
"8. c #E9E4DC",
"9. c #EBE5DD",
"0. c #ECE6DE",
"q. c #EDE7DF",
"w. c #EAE4DC",
"e. c #EEE8DF",
"r. c #EEE8E0",
"t. c #EFE9E1",
"y. c #EFE9E1",
"u. c #F2ECE3",
"i. c #F3EDE5",
"p. c #F4EEE5",
"a. c #F5EFE6",
"s. c #F5EFE6",
/* pixels */
"                                                                                                                                                                                                                                                                                                                                                                                                                                                                                                                                                                                                                                                                                                                                                                                                                                                                                                                                                                                                                                        ",
"                                                                                                                                                                                                                                                                                                                                                                                                                                                                                                                                                                                                                                                                                                                                                                                                                                                                                                                                                                                                                                        ",
"                                                                                                                                                                                                                                                                                                                                                                                                                                                                                                                                                                                                                                                                                                                                                                                                                                                                                                                                                                                                                                        ",
"                                                                                                                                                                                                                                                                                                                                                                                                                                                                                                                                                                                                                                                                                                                                                                                                                                                                                                                                                                                                                                        ",
"                                                                                                                                                                                                                                                                                                                                                                                                                                                                                                                                                                                                                                                                                                                                                                                                                                                                                                                                                                                                                                        ",
"                                                                                                                                                                                                                                                                                                                                                                                                                                                                                                                                                                                                                                                                                                                                                                                                                                                                                                                                                                                                                                        ",
"                                                                                                                                                                                                                                                                                                                                                                                                                                                                                                                                                                                                                                                                                                                                                                                                                                                                                                                                                                                                                                        ",
"                                                                                                                                                                                                                                                                                                                                                                                                                                                                                                                                                                                                                                                                                                                                                                                                                                                                                                                                                                                                                                        ",
"                                                                                                                                                                                                                                                                                                                                                                                                                                                                                                                                                                                                                                                                                                                                                                                                                                                                                                                                                                                                                                        ",
"                                                                                                                                                                                                                                                                                                                                                                                                                                                                                                                                                                                                                                                                                                                                                                                                                                                                                                                                                                                                                                        ",
"                                                                                                                                                                                                                                                                                                                                                                                                                                                                                                                                                                                                                                                                                                                                                                                                                                                                                                                                                                                                                                        ",
"                                                                                                                                                                                                                                                                                                                                                                                                                                                                                                                                                                                                                                                                                                                                                                                                                                                                                                                                                                                                                                        ",
"                                                                                                                                                                                                                                                                                                                                                                                                                                                                                                                                                                                                                                                                                                                                                                                                                                                                                                                                                                                                                                        ",
"                                                                                                                                                                                                                                                                                                                                                                                                                                                                                                                                                                                                                                                                                                                                                                                                                                                                                                                                                                                                                                        ",
"                                                                                                                                                                                                                                                                                                                                                                                                                                                                                                                                                                                                                                                                                                                                                                                                                                                                                                                                                                                                                                        ",
"                                                                                                                                                                                                                                                                                                                                                                                                                                                                                                                                                                                                                                                                                                                                                                                                                                                                                                                                                                                                                                        ",
"                                                                                                                                                                                                                                                                                                                                                                                                                                                                                                                                                                                                                                                                                                                                                                                                                                                                                                                                                                                                                                        ",
"                                                                                                                                                                                                                                                                                                                                                                                                                                                                                                                                                                                                                                                                                                                                                                                                                                                                                                                                                                                                                                        ",
"                                                                                                                                                                                                                                                                                                                                                                                                                                                                                                                                                                                                                                                                                                                                                                                                                                                                                                                                                                                                                                        ",
"                                                                                                                                                                                                                                                                                                                                                                                                                                                                                                                                                                                                                                                                                                                                                                                                                                                                                                                                                                                                                                        ",
"                                                                                                                                                                                                                                                                                                                                                                                                                                                                                                                                                                                                                                                                                                                                                                                                                                                                                                                                                                                                                                        ",
"                                                                                                                                                                                                                                                                                                                                                                                                                                                                                                                                                                                                                                                                                                                                                                                                                                                                                                                                                                                                                                        ",
"                                                                                                                                                                                                                                                                                                                                                                                                                                                                                                                                                                                                                                                                                                                                                                                                                                                                                                                                                                                                                                        ",
"                                                                                                                                                                                                                                                                                                                                                                                                                                                                                                                                                                                                                                                                                                                                                                                                                                                                                                                                                                                                                                        ",
"                                                                                                                                                                                                                                                                                                                                                                                                                                                                                                                                                                                                                                                                                                                                                                                                                                                                                                                                                                                                                                        ",
"                                                                                                                                                                                                                                                                                                                                                                                                                                                                                                                                                                                                                                                                                                                                                                                                                                                                                                                                                                                                                                        ",
"                                                                                                                                                                                                                                                                                                                                                                                                                                                                                                                                                                                                                                                                                                                                                                                                                                                                                                                                                                                                                                        ",
"                                                                                                                                                                                                                                                                                                                                                                                                                                                                                                                                                                                                                                                                                                                                                                                                                                                                                                                                                                                                                                        ",
"                                                                                                                                                                                                                                                                                                                                                                                                                                                                                                                                                                                                                                                                                                                                                                                                                                                                                                                                                                                                                                        ",
"                                                                                                                                                                                                                                                                                                                                                                                                                                                                                                                                                                                                                                                                                                                                                                                                                                                                                                                                                                                                                                        ",
"                                                                                                                                                                                                                                                                                                                                                                                                                                                                                                                                                                                                                                                                                                                                                                                                                                                                                                                                                                                                                                        ",
"                                                                                                                                                                                                                                                                                                                      . - , 2 k l z x x z l g 1 : O                                                                                                                                                                                                                                                                                                                                                                                                                                                                                                                                                                                                                                                                                     ",
"                                                                                                                                                                                                                                                                                                                : g c M N N N N N N N N N N N N N N n l < @                                                                                                                                                                                                                                                                                                                                                                                                                                                                                                                                                                                                                                                                             ",
"                                                                                                                                                                                                                                                                                                          - j n N N N N N N N N N N N N N N N N N N N N N N v 1 o                                                                                                                                                                                                                                                                                                                                                                                                                                                                                                                                                                                                                                                                       ",
"                                                                                                                                                                                                                                                                                                      > c N N N N N N N N N N N N N N N N N N N N N N N N N N N M k @                                                                                                                                                                                                                                                                                                                                                                                                                                                                                                                                                                                                                                                                   ",
"                                                                                                                                                                                                                                                                                                  , v N N N N N N N N N N N N N N N N N N N N N N N N N N N N N N N M k o                                                                                                                                                                                                                                                                                                                                                                                                                                                                                                                                                                                                                                                               ",
"                                                                                                                                                                                                                                                                                              @ z N N N N N N N N N N N N N N N N N N N N N N N N N N N N N N N N N N N m 2                                                                                                                                                                                                                                                                                                                                                                                                                                                                                                                                                                                                                                                             ",
"                                                                                                                                                                                                                                                                                            2 M N N N N N N N N M M N N N N N N N N N N M N N N N N N N N N N N N N N N N N v -                                                                                                                                                                                                                                                                                                                                                                                                                                                                                                                                                                                                                                                         ",
"                                                                                                                                                                                                                                                                                        o z N N N N N N N N N N N N N N N N N N N N N N M N N N N N N N N N N N N N N N N N N m 1                                                                                                                                                                                                                                                                                                                                                                                                                                                                                                                                                                                                                                                       ",
"                                                                                                                                                                                                                                                                                      - b N N N N N N N N N N N N N N N N m c l j g 1 2 g j z b M N N N N N N N N N N N N N N N N k                                                                                                                                                                                                                                                                                                                                                                                                                                                                                                                                                                                                                                                     ",
"                                                                                                                                                                                                                                                                                    : m N N N N N N N N N N N N N M z 1 -                       . > j b N N N N N N N N N N N N N N z .                                                                                                                                                                                                                                                                                                                                                                                                                                                                                                                                                                                                                                                 ",
"                                                                                                                                                                                                                                                                                  > M N N N N N N N N N N N N v 1 o                                     ; k M N N N N N N N N N N N N c .                                                                                                                                                                                                                                                                                                                                                                                                                                                                                                                                                                                                                                               ",
"                                                                                                                                                                                                                                                                                : M N N N N N N N N N N N v ,                                               + j M N N N N N N N N N N N x .                                                                                                                                                                                                                                                                                                                                                                                                                                                                                                                                                                                                                                             ",
"                                                                                                                                                                                                                                                                              ; m N N N N N N N N N N m 2                                                       @ z N N N N N N N N N N N z                                                                                               $ 7 0 r q 8 %                                                                                                                                                                                                                                                                                                                                                                                                                                                                                                                                 ",
"                                                                                                                                                                                                                                                                            + n N N N N N N N N N N c O                             > -                             < m N N N N N N N N N N j                                                                                     # p K *.a.a.a.a.a.a.a.:.U s %                                                                       X p p p p p p &                                                                                                                                                                                                                                                                                                                                                                                                                                   ",
"                                                                                                                                                                                                                                                                            x N N N N N N N N N N h                               k N M -                             - v N N N N N N N N N N ,                                                                               % Z 1.a.a.a.a.a.a.a.a.a.a.a.a.a.q.H 3                                                                   & a.a.a.a.a.a.9                                                                                                                                                                                                                                                                                                                                                                                                                                   ",
"                                                                                                                                                                                                                                                                          h N N N N N N N N N M 1                           - .   v N N ,   @ o                         . x N N N N N N N N N n @                                                                           s 4.a.a.a.a.a.a.a.a.a.a.a.a.a.a.a.a.a.r.Z X                                                               & a.a.a.a.a.a.9                                                                                                                                                                                                                                                                                                                                                                                                                                   ",
"                                                                                                                                                                                                                                                                        ; M N N N N N N N N M ,                           k N b . v N N < < M m ;                         . x N N N N N N N N N x                                                                       $ ~ a.a.a.a.a.a.a.a.a.a.a.a.a.a.a.a.a.a.a.a.a.X.3                             a.a.a.a.a.a.r                   & a.a.a.a.a.a.9                                                                                                                                                                                                                                                                                                                                                                                                                                   ",
"                                                                                                                                                                                                                                                                        c N N N N N N N N N <                             n N N ; v N N < z N N 2                           . c N N N N N N N N N ,                                                                   * @.a.a.a.a.a.a.a.a.a.a.a.a.a.a.a.a.a.a.a.a.a.a.a.1.8                           a.a.a.a.a.a.r                   & a.a.a.a.a.a.9                                                                                                                                                                                                                                                                                                                                                                                                                                   ",
"                                                                                                                                                                                                                                                                      1 N N N N N N N N N 2                       - 2 -   m N N : v N N < z N N 2   < 1                       o b N N N N N N N N n .                                                               & @.a.a.a.a.a.a.a.a.r.( Z s p s C R q.a.a.a.a.a.a.a.a.1.6                         a.a.a.a.a.a.r                   & a.a.a.a.a.a.9                                                                                                                                                                                                                                                                                                                                                                                                                                   ",
"                                                                                                                                                                                                                                                                    . n N N N N N N N N x                         n N n . m N N : v N N < z N N 2 < M M 2                       ; M N N N N N N N N 2                                                             X _ a.a.a.a.a.a.a.q.C $               X s *.a.a.a.a.a.a.a.*.%                       a.a.a.a.a.a.r                   $ H H H G H H 3                                                                                                                                                                                                                                                                                                                                                                                                                                   ",
"                                                                                                                                                                                                                                                                    1 N N N N N N N N n o                       o N N N @ m N N : v N N < z N N 2 j M M l                         1 N N N N N N N N n .                                                           Z a.a.a.a.a.a.a._ *                       $ K a.a.a.a.a.a.a.R                       a.a.a.a.a.a.r                                                                                                                                                                                                                                                                                                                                                                                                                                                                     ",
"                                                                                                                                                                                                                                                                    b N N N N N N N N ,                   - 1 + o N N N @ m N N : v N N < z N N g j N N k   > < .                   c N N N N N N N N 1                                                         6 r.a.a.a.a.a.a.R X                             D a.a.a.a.a.a.a.u                     a.a.a.a.a.a.r                                                                                                                                                                                                                                                                                                                                                                                                                                                                     ",
"                                                                                                                                                                                                                                                                  , N N N N N N N N x                   o m N v o N N N @ m N N : v N N < z N N g j N N k : N N j                   ; M N N N N N N N b                                                         ~ a.a.a.a.a.a.O.$                                 R a.a.a.a.a.a.&.X                   a.a.a.a.a.a.r                                                                                                                                                                                                                                                                                                                                                                                                                                                                     ",
"                                                                                                                                                                                                                                                                  z N N N N N N N N ;                   ; N N N o N N N @ m N N : v N N < z N N g j N N k 1 N N x                     z N N N N N N N N :                                                     8 a.a.a.a.a.a.a.8                                   % 4.a.a.a.a.a.a.p                   a.a.a.a.a.a.r                                                               $ 7 0 e 9 3                                                                                                                                                                                                                                                                                                                                                                                           ",
"                                                                                                                                                                                                                                                                o M N N N N N N N x               ; < . ; N N N o N N N @ m N N : v N N < z N N g j N N k 1 N N x   ; < .             ; N N N N N N N N k                                                     G a.a.a.a.a.a.K                                       d a.a.a.a.a.a.}         p C C C C a.a.a.a.a.a.K C C C C d         $ C C C C C C *                     % d R 1.a.a.a.a.a.a.q.} C 4                                                                                                                                                                                                                                                                                                                                                                                   ",
"                                                                                                                                                                                                                                                                1 N N N N N N N N >             - M N l ; N N N o N N N @ m N N : v N N < z N N g j N N k 1 N N x @ M N z               x N N N N N N N m                                                   # q.a.a.a.a.a.a.3                                       X 1.a.a.a.a.a.a.5       _ a.a.a.a.a.a.a.a.a.a.a.a.a.a.a.q.        & a.a.a.a.a.a.9                 $ D q.a.a.a.a.a.a.a.a.a.a.a.a.a.K *                                                                                                                                                                                                                                                                                                                                                                               ",
"                                                                                                                                                                                                                                                                z N N N N N N N n               , N N b ; N N N o N N N @ m N N : v N N < z N N g j N N k 1 N N x > N N b               < N N N N N N N N ;                                                 r a.a.a.a.a.a.}                                           G a.a.a.a.a.a.C       _ a.a.a.a.a.a.a.a.a.a.a.a.a.a.a.q.        & a.a.a.a.a.a.9               6 &.a.a.a.a.a.a.a.a.a.a.a.a.a.a.a.a.:.0                                                                                                                                                                                                                                                                                                                                                                             ",
"                                                                                                                                                                                                                                                                n N N N N N N N j         j l @ , N N b ; N N N o N N N @ m N N : v N N < z N N 2 j N M k 1 N N x > N N b   < z >       . m N N N N N N N 2                                                 D a.a.a.a.a.a.d                                           e a.a.a.a.a.a._       _ a.a.a.a.a.a.a.a.a.a.a.a.a.a.a.q.        & a.a.a.a.a.a.9             3 :.a.a.a.a.a.a.a.a.a.a.a.a.a.a.a.a.a.a.q.5                                                                                                                                                                                                                                                                                                                                                                           ",
"                                                                                                                                                                                                                                                              - N N N N N N N N :       < N N l , N N b ; N N N o N N N @ m N N : v N N < z N N 2 j M M k 1 N N x > N N b O N N n         x N N N N N N N x                                                 ] a.a.a.a.a.a.9                                           $ a.a.a.a.a.a.q.      _ a.a.a.a.a.a.a.a.a.a.a.a.a.a.a.q.        & a.a.a.a.a.a.9             ] a.a.a.a.a.a.a.r.X.( ] &.a.a.a.a.a.a.a.a.O.                                                                                                                                                                                                                                                                                                                                                                          ",
"                                                                                                                                                                                                                                                              < N N N N N N N M . @ @   1 N N x , N N b ; N N N o N N N @ m N N : v N N < z N N 2 j N N k 1 N N x > N N b - N N N     ; . 2 N N N N N N N n                                                 q.a.a.a.a.a.a.#                                             @.a.a.a.a.a.a.3     5 9 9 9 9 a.a.a.a.a.a.d 9 9 9 9 8         & a.a.a.a.a.a.9           0 a.a.a.a.a.a.@.t #         3 C q.a.a.a.a.a.a.p                                                                                                                                                                                                                                                                                                                                                                         ",
"                                                                                                                                                                                                                                                              g N N N N N N N c > M M > 1 N N x , N N b ; N N N o N N N @ m N N : v N N < z N N g j N N k 1 N N x > N N b - N N N   x N v ; N N N N N N N N o                                             & a.a.a.a.a.a.@.                                              U a.a.a.a.a.a.e               a.a.a.a.a.a.r                   & a.a.a.a.a.a.9           C a.a.a.a.a.4.&                 q a.a.a.a.a.a._                                                                                                                                                                                                                                                                                                                                                                         ",
"                                                                                                                                                                                                                                                              z N N N N N N N k j N N k 2 N N x , N N b ; N N N o N N N @ m N N : v N N < z N N g j N N k 1 N N x > N N b - N N N + N N N - N N N N N N N N ;                                             6 a.a.a.a.a.a.]                                               F a.a.a.a.a.a.p               a.a.a.a.a.a.r                   & a.a.a.a.a.a.9           F a.a.a.a.a.(                     R a.a.a.a.a.q.X                                                                                                                                                                                                                                                                                                                                                                       ",
"                                                                                                                                                                                                                                                              v N N N N N N N 2 j N N k 2 N N x , N N b ; N N N o N N N @ m N N : v N N < z N N g j N N k 1 N N x > N N b - N N N o N N N @ n N N N N N N N ,                                             9 a.a.a.a.a.a.~                                               Z a.a.a.a.a.a.s               a.a.a.a.a.a.r                   & a.a.a.a.a.a.9           D a.a.a.a.a.*.X                   9 C C C C C C %                                                                                                                                                                                                                                                                                                                                                                       ",
"                                                                                                                                                                                                                                                              b N N N N N N N , k N N k 2 N N x , N N b ; N N N o N N N @ m N N : v N N < z N N g j N N k 1 N N x > N N b - N N N o N N N @ c N N N N N N N 1                                             q a.a.a.a.a.a.U                                               C a.a.a.a.a.a.d               a.a.a.a.a.a.r                   & a.a.a.a.a.a.9           d a.a.a.a.a.a.F X                                                                                                                                                                                                                                                                                                                                                                                                       ",
"                                                                                                                                                                                                                                                              n N N N N N N N > k N N k 1 N N x , N N b ; N N N o N N N @ m N N : v N N < z N N g j N N k 1 N N x > N N b - N N N o N N N @ x N N N N N N N 2                                             9 a.a.a.a.a.a.(                                               A a.a.a.a.a.a.s               a.a.a.a.a.a.r                   & a.a.a.a.a.a.9           7 a.a.a.a.a.a.a.O.s &                                                                                                                                                                                                                                                                                                                                                                                                   ",
"                                                                                                                                                                                                                                                              M N N N N N N N : k N N k 1 N N x , N N b ; N N N o N N N @ m N N : v N N < z N N g j N N k 1 N N x > N N b - N N N o N N N @ z N N N N N N N g                                             5 a.a.a.a.a.a.}                                               G a.a.a.a.a.a.u               a.a.a.a.a.a.r                   & a.a.a.a.a.a.9             } a.a.a.a.a.a.a.a.a.O.D i 3                                                                                                                                                                                                                                                                                                                                                                                           ",
"                                                                                                                                                                                                                                                              M N N N N M M N : j N N k 1 N N x , N N b ; N N N o N N N @ m N N : v N N < z N N g j N N k 1 N N x > N N b - N N N o N N N @ z N N N N N N N g                                             $ a.a.a.a.a.a.:.                                              / a.a.a.a.a.a.9               a.a.a.a.a.a.r                   & a.a.a.a.a.a.9             6 e.a.a.a.a.a.a.a.a.a.a.a.a.1.U s *                                                                                                                                                                                                                                                                                                                                                                                   ",
"                                                                                                                                                                                                                                                              n N N N N N N N > j N N k 1 N N x , N N b ; N N N o N N N @ m N N : v N N < z N N g j M M k 1 N N x > N N b - N N N o N N N @ x N N N N N N N 2                                               :.a.a.a.a.a.a.&                                             :.a.a.a.a.a.a.&               a.a.a.a.a.a.r                   & a.a.a.a.a.a.9               w 4.a.a.a.a.a.a.a.a.a.a.a.a.a.a.a.} s X                                                                                                                                                                                                                                                                                                                                                                             ",
"                                                                                                                                                                                                                                                              b N N N N N N N , j N N k 1 N N x , N N b ; N N N o N N N @ m N N : v N N < z N N 2 j M M k 1 N N x > N N b - N N N o N N N @ c N N N N N N N 1                                               ~ a.a.a.a.a.a.r                                           * a.a.a.a.a.a.*.                a.a.a.a.a.a.r                   & a.a.a.a.a.a.9                 * I a.a.a.a.a.a.a.a.a.a.a.a.a.a.a.a.@.9                                                                                                                                                                                                                                                                                                                                                                           ",
"                                                                                                                                                                                                                                                              v N N N N N N N 1 k N M k 2 N N x , N N b ; N N N o N N N @ m N N : v N N < z N N 2 j M M k 1 N N x > N N b - N N N o N N N @ n N N N N N N N ,                                               C a.a.a.a.a.a.D                                           s a.a.a.a.a.a.U                 a.a.a.a.a.a.r                   & a.a.a.a.a.a.9                     3 C ' a.a.a.a.a.a.a.a.a.a.a.a.a.a.q.w                                                                                                                                                                                                                                                                                                                                                                         ",
"                                                                                                                                                                                                                                                              z N N N N N N N k j N N k 2 N N x , N N b ; N N N o N N N @ m N N : v N N < z N N 2 j M M k 1 N N x > N N b - N N N + N N N - N N N N N N N N ;                                               8 a.a.a.a.a.a.:.                                          ( a.a.a.a.a.a.a                 a.a.a.a.a.a.r                   & a.a.a.a.a.a.9                           $ y Z _ q.a.a.a.a.a.a.a.a.a.a.1.&                                                                                                                                                                                                                                                                                                                                                                       ",
"                                                                                                                                                                                                                                                              h N N N N N N N c > M M > 2 N N x , N N b ; N N N o N N N @ m N N : v N N < z N N 2 j N N k 1 N N x > N N b - N N N   x N c ; N N N N N N N N o                                                 &.a.a.a.a.a.a.t                                       3 a.a.a.a.a.a.r.&                 a.a.a.a.a.a.r                   & a.a.a.a.a.a.9                                     8 C _ a.a.a.a.a.a.a.a.A                                                                                                                                                                                                                                                                                                                                                                       ",
"                                                                                                                                                                                                                                                              < N N N N N N N M . O @   2 N N x , N N b ; N N N o N N N @ m N N : v N N < z N N 2 j N N k 1 N N x > N N b - N N N     ; . 2 N N N N N N N n                                                   C a.a.a.a.a.a.O.                                      I a.a.a.a.a.a.U                   a.a.a.a.a.a.r                   & a.a.a.a.a.a.9                                           4 ( a.a.a.a.a.a.*.                                                                                                                                                                                                                                                                                                                                                                      ",
"                                                                                                                                                                                                                                                              - N N N N N N N N :       < N N l , N N b ; N N N o N N N @ m N N : v N N < z N N 2 j M M k 1 N N x > N N b O N N n         x N N N N N N N x                                                   & q.a.a.a.a.a.a.s                                   9 a.a.a.a.a.a.a.9                   a.a.a.a.a.a.r                   & a.a.a.a.a.a.9         X 4 4 4 4 4 4 X                       ( a.a.a.a.a.a.#                                                                                                                                                                                                                                                                                                                                                                     ",
"                                                                                                                                                                                                                                                                n N N N N N N N g         j l @ , N N b ; N N N o N N N @ m N N : v N N < z N N 2 j M M k 1 N N x > N N b   < z :       . M N N N N N N N 2                                                     A a.a.a.a.a.a.q.6                               & *.a.a.a.a.a.a.~                     a.a.a.a.a.a.t                   & a.a.a.a.a.a.9         3 a.a.a.a.a.a.9                       r a.a.a.a.a.a.=                                                                                                                                                                                                                                                                                                                                                                     ",
"                                                                                                                                                                                                                                                                z N N N N N N N n               , N N b ; N N N o N N N @ m N N : v N N < z N N g j N N k 1 N N x > N N b               < N N N N N N N N ;                                                     $ :.a.a.a.a.a.a.1.7                           * O.a.a.a.a.a.a.r.5                     a.a.a.a.a.a.i                   & a.a.a.a.a.a.9         X a.a.a.a.a.a.C                       9 a.a.a.a.a.a.%                                                                                                                                                                                                                                                                                                                                                                     ",
"                                                                                                                                                                                                                                                                1 N N N N N N N N >             @ M N l ; N N N o N N N @ m N N : v N N < z N N g j N N k 1 N N x @ M N z               x N N N N N N N n                                                         t a.a.a.a.a.a.a.q.s                       r :.a.a.a.a.a.a.a.C                       q.a.a.a.a.a.C                   & a.a.a.a.a.a.9           X.a.a.a.a.a.:.&                     C a.a.a.a.a.:.                                                                                                                                                                                                                                                                                                                                                                      ",
"                                                                                                                                                                                                                                                                o M N N N N N N N x               ; < . ; N N N o N N N @ m N N : v N N < z N N g j N N k 1 N N x   ; < .             ; N N N N N N N N k                                                           Z a.a.a.a.a.a.a.a.O.s &           $ i _ a.a.a.a.a.a.a.a.~                         @.a.a.a.a.a.*.*                 & a.a.a.a.a.a.9           d a.a.a.a.a.a.O.6                 p e.a.a.a.a.a.G                                                                                                                                                                                                                                                                                                                                                                       ",
"                                                                                                                                                                                                                                                                  z N N N N N N N N ;                   ; N N N o N N N @ m N N : v N N < z N N g j N N k 1 N N x                     z N N N N N N N N :                                                             H a.a.a.a.a.a.a.a.a.a.*.] _ ' &.a.a.a.a.a.a.a.a.a.a.] $                         ( a.a.a.a.a.a.e.} _ _ O.        & a.a.a.a.a.a.9           & 1.a.a.a.a.a.a.a.~ B i q r p G $.a.a.a.a.a.a.a.5                                                                                                                                                                                                                                                                                                                                                                       ",
"                                                                                                                                                                                                                                                                  , N N N N N N N N x                   o m N v o N N N @ m N N : v N N < z N N g j M M k : N N j                   ; M N N N N N N N b                                                                 D a.a.a.a.a.a.a.a.a.a.a.a.a.a.a.a.a.a.a.a.a.a.a.~ $                           Z a.a.a.a.a.a.a.a.a.a.q.        & a.a.a.a.a.a.9             u a.a.a.a.a.a.a.a.a.a.a.a.a.a.a.a.a.a.a.a.a.s                                                                                                                                                                                                                                                                                                                                                                         ",
"                                                                                                                                                                                                                                                                    b N N N N N N N N ,                   - 1 o o N N N @ m N N : v N N < z N N g j M N k   > < .                   c N N N N N N N N 2                                                                   s q.a.a.a.a.a.a.a.a.a.a.a.a.a.a.a.a.a.a.a.a.Z                               4 q.a.a.a.a.a.a.a.a.a.q.        & a.a.a.a.a.a.9               s a.a.a.a.a.a.a.a.a.a.a.a.a.a.a.a.a.a.a.C                                                                                                                                                                                                                                                                                                                                                                           ",
"                                                                                                                                                                                                                                                                    1 N N N N N N N N n o                       o N N N @ m N N : v N N < z N N 2 j N N k                         2 N N N N N N N N n .                                                                     3 U a.a.a.a.a.a.a.a.a.a.a.a.a.a.a.a.a.] 8                                   p r.a.a.a.a.a.a.a.a.q.        & a.a.a.a.a.a.9                 y *.a.a.a.a.a.a.a.a.a.a.a.a.a.a.a.*.r                                                                                                                                                                                                                                                                                                                                                                             ",
"                                                                                                                                                                                                                                                                    . n N N N N N N N N x                         n N n . m N N : v N N < z N N 2 1 N N 2                       ; M N N N N N N N N 2                                                                           8 K q.a.a.a.a.a.a.a.a.a.a.a.a.R r                                         6 K 1.a.a.a.a.a.a.1.        & a.a.a.a.a.a.9                   $ d O.a.a.a.a.a.a.a.a.a.a.a.] a X                                                                                                                                                                                                                                                                                                                                                                               ",
"                                                                                                                                                                                                                                                                      < N N N N N N N N N g                       - 2 -   m N N : v N N < z N N g   < <                       o b N N N N N N N N b .                                                                               $ r Z T ..*.:.*.O.~ D u %                                                   & 7 q 0 6 &                                                   4 p A I ~ _ R K C u &                                                                                                                                                                                                                                                                                                                                                                                     ",
"                                                                                                                                                                                                                                                                        c N N N N N N N N N 1                             n N N ; v N N < z N N 2                           . c N N N N N N N N N ,                                                                                                                                                                                                                                                                                                                                                                                                                                                                                                                                                                                                                                     ",
"                                                                                                                                                                                                                                                                        ; M N N N N M M N N M ,                           k N b . v N N < < M m ;                         . x N N N N N N N N N x                                                                                                                                                                                                                                                                                                                                                                                                                                                                                                                                                                                                                                       ",
"                                                                                                                                                                                                                                                                          g N N N N N N N N N M 1                           - .   v N N ,   @ o                         . x N N N N N N N N N n @                                                                                                                                                                                                                                                                                                                                                                                                                                                                                                                                                                                                                                       ",
"                                                                                                                                                                                                                                                                            x N N N N N N N N N N j                               k N M @                             - v N N N N N N N N N N >                                                                                                                                                                                                                                                                                                                                                                                                                                                                                                                                                                                                                                         ",
"                                                                                                                                                                                                                                                                            o n N N N N N N N N N N c O                             > @                             < m N N N N N N N N N N j                                                                                                                                                                                                                                                                                                                                                                                                                                                                                                                                                                                                                                           ",
"                                                                                                                                                                                                                                                                              - n N N N N N N N N N N m 2                                                       @ z N N N N N N N N N N N z                                                                                                                                                                                                                                                                                                                                                                                                                                                                                                                                                                                                                                             ",
"                                                                                                                                                                                                                                                                                : M N N N N N N N N N N N v ,                                               O j M N N N N N N N N N N N x .                                                                                                                                                                                                                                                                                                                                                                                                                                                                                                                                                                                                                                             ",
"                                                                                                                                                                                                                                                                                  > M N N N N N N N N N N N N b 1 o                                     : k M N N N N N N N N N N N N c .                                                                                                                                                                                                                                                                                                                                                                                                                                                                                                                                                                                                                                               ",
"                                                                                                                                                                                                                                                                                    : n N N N N N N N N N N N N N M z 1 -                       . > j b N N N N N N N N N N N N N N z .                                                                                                                                                                                                                                                                                                                                                                                                                                                                                                                                                                                                                                                 ",
"                                                                                                                                                                                                                                                                                      - b N N N N N N N N N N N N N N N N m c l j g 1 2 g k x b N N N N N N N N N N N N N N N N N k                                                                                                                                                                                                                                                                                                                                                                                                                                                                                                                                                                                                                                                     ",
"                                                                                                                                                                                                                                                                                        . z N N N N N N N N N N N N N N N N N N N N N N N N N N N N N N N N N N N N N N N N N m 1                                                                                                                                                                                                                                                                                                                                                                                                                                                                                                                                                                                                                                                       ",
"                                                                                                                                                                                                                                                                                            1 m N N N N N N N N N N N N N N N N N N N N N N N N N N N N N N N N N N N N N N c -                                                                                                                                                                                                                                                                                                                                                                                                                                                                                                                                                                                                                                                         ",
"                                                                                                                                                                                                                                                                                              @ z N N N N N M M N N N N N N N N N N N N N N N N N N N N N N N N N N N N m 2                                                                                                                                                                                                                                                                                                                                                                                                                                                                                                                                                                                                                                                             ",
"                                                                                                                                                                                                                                                                                                  > v N N N N N N N N N N N N N N N N N N N N N N N N N N N N N N N M k o                                                                                                                                                                                                                                                                                                                                                                                                                                                                                                                                                                                                                                                               ",
"                                                                                                                                                                                                                                                                                                      > c N N N N N N N N N N N N N N N N N N N N N N N N N N N M k @                                                                                                                                                                                                                                                                                                                                                                                                                                                                                                                                                                                                                                                                   ",
"                                                                                                                                                                                                                                                                                                          @ g n N N N N N N N N N N N N N N N N N N N N N N c 1 o                                                                                                                                                                                                                                                                                                                                                                                                                                                                                                                                                                                                                                                                       ",
"                                                                                                                                                                                                                                                                                                                : g c M N N N N N N N N N N N N N N n l < O                                                                                                                                                                                                                                                                                                                                                                                                                                                                                                                                                                                                                                                                             ",
"                                                                                                                                                                                                                                                                                                                      . - , 2 k l z x x z l j 1 : O                                                                                                                                                                                                                                                                                                                                                                                                                                                                                                                                                                                                                                                                                     ",
"                                                                                                                                                                                                                                                                                                                                                                                                                                                                                                                                                                                                                                                                                                                                                                                                                                                                                                                                                                                                                                        ",
"                                                                                                                                                                                                                                                                                                                                                                                                                                                                                                                                                                                                                                                                                                                                                                                                                                                                                                                                                                                                                                        ",
"                                                                                                                                                                                                                                                                                                                                                                                                                                                                                                                                                                                                                                                                                                                                                                                                                                                                                                                                                                                                                                        ",
"                                                                                                                                                                                                                                                                                                                                                                                                                                                                                                                                                                                                                                                                                                                                                                                                                                                                                                                                                                                                                                        ",
"                                                                                                                                                                                                                                                                                                                                                                                                                                                                                                                                                                                                                                                                                                                                                                                                                                                                                                                                                                                                                                        ",
"                                                                                                                                                                                                                                                                                                                                                                                                                                                                                                                                                                                                                                                                                                                                                                                                                                                                                                                                                                                                                                        ",
"                                                                                                                                                                                                                                                                                                                                                                                                                                                                                                                                                                                                                                                                                                                                                                                                                                                                                                                                                                                                                                        ",
"                                                                                                                                                                                                                                                                                                                                                                                                                                                                                                                                                                                                                                                                                                                                                                                                                                                                                                                                                                                                                                        ",
"                                                                                                                                                                                                                                                                                                                                                                                                                                                                                                                                                                                                                                                                                                                                                                                                                                                                                                                                                                                                                                        ",
"                                                                                                                                                                                                                                                                                                                                                                                                                                                                                                                                                                                                                                                                                                                                                                                                                                                                                                                                                                                                                                        ",
"                                                                                                                                                                                                                                                                                                                                                                                                                                                                                                                                                                                                                                                                                                                                                                                                                                                                                                                                                                                                                                        ",
"                                                                                                                                                                                                                                                                                                                                                                                                                                                                                                                                                                                                                                                                                                                                                                                                                                                                                                                                                                                                                                        ",
"                                                                                                                                                                                                                                                                                                                                                                                                                                                                                                                                                                                                                                                                                                                                                                                                                                                                                                                                                                                                                                        ",
"                                                                                                                                                                                                                                                                                                                                                                                                                                                                                                                                                                                                                                                                                                                                                                                                                                                                                                                                                                                                                                        ",
"                                                                                                                                                                                                                                                                                                                                                                                                                                                                                                                                                                                                                                                                                                                                                                                                                                                                                                                                                                                                                                        ",
"                                                                                                                                                                                                                                                                                                                                                                                                                                                                                                                                                                                                                                                                                                                                                                                                                                                                                                                                                                                                                                        ",
"                                                                                                                                                                                                                                                                                                                                                                                                                                                                                                                                                                                                                                                                                                                                                                                                                                                                                                                                                                                                                                        ",
"                                                                                                                                                                                                                                                                                                                                                                                                                                                                                                                                                                                                                                                                                                                                                                                                                                                                                                                                                                                                                                        ",
"                                                                                                                                                                                                                                                                                                                                                                                                                                                                                                                                                                                                                                                                                                                                                                                                                                                                                                                                                                                                                                        ",
"                                                                                                                                                                                                                                                                                                                                                                                                                                                                                                                                                                                                                                                                                                                                                                                                                                                                                                                                                                                                                                        ",
"                                                                                                                                                                                                                                                                                                                                                                                                                                                                                                                                                                                                                                                                                                                                                                                                                                                                                                                                                                                                                                        ",
"                                                                                                                                                                                                                                                                                                                                                                                                                                                                                                                                                                                                                                                                                                                                                                                                                                                                                                                                                                                                                                        ",
"                                                                                                                                                                                                                                                                                                                                                                                                                                                                                                                                                                                                                                                                                                                                                                                                                                                                                                                                                                                                                                        ",
"                                                                                                                                                                                                                                                                                                                                                                                                                                                                                                                                                                                                                                                                                                                                                                                                                                                                                                                                                                                                                                        ",
"                                                                                                                                                                                                                                                                                                                                                                                                                                                                                                                                                                                                                                                                                                                                                                                                                                                                                                                                                                                                                                        ",
"                                                                                                                                                                                                                                                                                                                                                                                                                                                                                                                                                                                                                                                                                                                                                                                                                                                                                                                                                                                                                                        ",
"                                                                                                                                                                                                                                                                                                                                                                                                                                                                                                                                                                                                                                                                                                                                                                                                                                                                                                                                                                                                                                        ",
"                                                                                                                                                                                                                                                                                                                                                                                                                                                                                                                                                                                                                                                                                                                                                                                                                                                                                                                                                                                                                                        ",
"                                                                                                                                                                                                                                                                                                                                                                                                                                                                                                                                                                                                                                                                                                                                                                                                                                                                                                                                                                                                                                        ",
"                                                                                                                                                                                                                                                                                                                                                                                                                                                                                                                                                                                                                                                                                                                                                                                                                                                                                                                                                                                                                                        ",
"                                                                                                                                                                                                                                                                                                                                                                                                                                                                                                                                                                                                                                                                                                                                                                                                                                                                                                                                                                                                                                        "
};
