/* XPM */
static const char * const Otis_splash_xpm[] = {
/* columns rows colors chars-per-pixel */
"550 190 139 2 ",
"   c #1A1714",
".  c #1D1815",
"X  c #1F1C18",
"o  c #241915",
"O  c #2D1A16",
"+  c #221E1B",
"@  c #331B17",
"#  c #3A1C18",
"$  c #24211E",
"%  c #262421",
"&  c #292622",
"*  c #2C2925",
"=  c #2F2C29",
"-  c #312E2A",
";  c #36322E",
":  c #393531",
">  c #3C3935",
",  c #3F3B38",
"<  c #431E19",
"1  c #481F19",
"2  c #4E201A",
"3  c #53211B",
"4  c #5B221C",
"5  c #66241D",
"6  c #6E251E",
"7  c #72261E",
"8  c #79271F",
"9  c #7C281F",
"0  c #423E3A",
"q  c #7C2820",
"w  c #46423E",
"e  c #494641",
"r  c #4D4945",
"t  c #504C47",
"y  c #514D49",
"u  c #55524D",
"i  c #58534F",
"p  c #5A5652",
"a  c #5D5954",
"s  c #605C57",
"d  c #635F5A",
"f  c #66615C",
"g  c #68645F",
"h  c #6A6661",
"j  c #6E6A64",
"k  c #706D67",
"l  c #726E69",
"z  c #76716C",
"x  c #79746F",
"c  c #7B7670",
"v  c #7D7973",
"b  c #832920",
"n  c #8B2A21",
"m  c #932C22",
"M  c #9B2D23",
"N  c #A32E24",
"B  c #A92F25",
"V  c #A73024",
"C  c #AB3025",
"Z  c #B23225",
"A  c #BB3327",
"S  c #BF3428",
"D  c #C13427",
"F  c #C43528",
"G  c #CB3629",
"H  c #D23729",
"J  c #D7382A",
"K  c #D8382A",
"L  c #807C76",
"P  c #837E78",
"I  c #87827D",
"U  c #89847E",
"Y  c #8B8680",
"T  c #8F8A84",
"R  c #918C86",
"E  c #938F88",
"W  c #97938D",
"Q  c #99948D",
"!  c #9C9790",
"~  c #9F9A94",
"^  c #A19C95",
"/  c #A39F98",
"(  c #A7A19A",
")  c #A9A49E",
"_  c #ACA7A0",
"`  c #AEA9A2",
"'  c #B3ADA6",
"]  c #B6B1A9",
"[  c #B9B3AC",
"{  c #BCB6B0",
"}  c #BEB9B2",
"|  c #C2BDB5",
" . c #C4BFB8",
".. c #C5C0B7",
"X. c #C6C1B9",
"o. c #C8C3BB",
"O. c #CAC4BC",
"+. c #CDC8C1",
"@. c #CEC9C1",
"#. c #CFCAC2",
"$. c #CEC9C1",
"%. c #D4CDC6",
"&. c #D4CFC7",
"*. c #D2CCC4",
"=. c #D4D0C8",
"-. c #D6D1C9",
";. c #D7D1C9",
":. c #DAD5CC",
">. c #DAD4CC",
",. c #DBD6CD",
"<. c #DCD6CE",
"1. c #DAD5CD",
"2. c #DFD9D1",
"3. c #DFD9D1",
"4. c #E1DCD3",
"5. c #E2DCD4",
"6. c #E3DDD5",
"7. c #E4DED6",
"8. c #E5DFD6",
"9. c #E2DCD3",
"0. c #E6E0D7",
"q. c #E6E0D7",
"w. c #E6E1D8",
"e. c #E7E1D9",
"r. c #E7E1D8",
"t. c #E8E2DA",
"y. c #E9E3DA",
"u. c #EBE4DB",
"i. c #ECE6DD",
"p. c #EDE7DF",
"a. c #EEE7DF",
"s. c #EBE5DC",
"d. c #EFE9E0",
"f. c #F0EAE1",
"g. c #F2ECE3",
"h. c #F2ECE4",
"j. c #F4EEE5",
"k. c #F5EFE6",
"l. c #F5EFE6",
/* pixels */
"                                                                                                                                                                                                                                                                                                                                                                                                                                                                                                                                                                                                                                                                                                                                                                                                                                                                                                                                                                                                                                                                                                                                            ",
"                                                                                                                                                                                                                                                                                                                                                                                                                                                                                                                                                                                                                                                                                                                                                                                                                                                                                                                                                                                                                                                                                                                                            ",
"                                                                                                                                                                                                                                                                                                                                                                                                                                                                                                                                                                                                                                                                                                                                                                                                                                                                                                                                                                                                                                                                                                                                            ",
"                                                                                                                                                                                                                                                                                                                                                                                                                                                                                                                                                                                                                                                                                                                                                                                                                                                                                                                                                                                                                                                                                                                                            ",
"                                                                                                                                                                                                                                                                                                                                                                                                                                                                                                                                                                                                                                                                                                                                                                                                                                                                                                                                                                                                                                                                                                                                            ",
"                                                                                                                                                                                                                                                                                                                                                                                                                                                                                                                                                                                                                                                                                                                                                                                                                                                                                                                                                                                                                                                                                                                                            ",
"                                                                                                                                                                                                                                                                                                                                                                                                                                                                                                                                                                                                                                                                                                                                                                                                                                                                                                                                                                                                                                                                                                                                            ",
"                                                                                                                                                                                                                                                                                                                                                                                                                                                                                                                                                                                                                                                                                                                                                                                                                                                                                                                                                                                                                                                                                                                                            ",
"                                                                                                                                                                                                                                                                                                                                                                                                                                                                                                                                                                                                                                                                                                                                                                                                                                                                                                                                                                                                                                                                                                                                            ",
"                                                                                                                                                                                                                                                                                                                                                                                                                                                                                                                                                                                                                                                                                                                                                                                                                                                                                                                                                                                                                                                                                                                                            ",
"                                                                                                                                                                                                                                                                                                                                                                                                                                                                                                                                                                                                                                                                                                                                                                                                                                                                                                                                                                                                                                                                                                                                            ",
"                                                                                                                                                                                                                                                                                                                                                                                                                                                                                                                                                                                                                                                                                                                                                                                                                                                                                                                                                                                                                                                                                                                                            ",
"                                                                                                                                                                                                                                                                                                                                                                                                                                                                                                                                                                                                                                                                                                                                                                                                                                                                                                                                                                                                                                                                                                                                            ",
"                                                                                                                                                                                                                                                                                                                                                                                                                                                                                                                                                                                                                                                                                                                                                                                                                                                                                                                                                                                                                                                                                                                                            ",
"                                                                                                                                                                                                                                                                                                                                                                                                                                                                                                                                                                                                                                                                                                                                                                                                                                                                                                                                                                                                                                                                                                                                            ",
"                                                                                                                                                                                                                                                                                                                                                                                                                                                                                                                                                                                                                                                                                                                                                                                                                                                                                                                                                                                                                                                                                                                                            ",
"                                                                                                                                                                                                                                                                                                                                                                                                                                                                                                                                                                                                                                                                                                                                                                                                                                                                                                                                                                                                                                                                                                                                            ",
"                                                                                                                                                                                                                                                                                                                                                                                                                                                                                                                                                                                                                                                                                                                                                                                                                                                                                                                                                                                                                                                                                                                                            ",
"                                                                                                                                                                                                                                                                                                                                                                                                                                                                                                                                                                                                                                                                                                                                                                                                                                                                                                                                                                                                                                                                                                                                            ",
"                                                                                                                                                                                                                                                                                                                                                                                                                                                                                                                                                                                                                                                                                                                                                                                                                                                                                                                                                                                                                                                                                                                                            ",
"                                                                                                                                                                                                                                                                                                                                                                                                                                                                                                                                                                                                                                                                                                                                                                                                                                                                                                                                                                                                                                                                                                                                            ",
"                                                                                                                                                                                                                                                                                                                                                                                                                                                                                                                                                                                                                                                                                                                                                                                                                                                                                                                                                                                                                                                                                                                                            ",
"                                                                                                                                                                                                                                                                                                                                                                                                                                                                                                                                                                                                                                                                                                                                                                                                                                                                                                                                                                                                                                                                                                                                            ",
"                                                                                                                                                                                                                                                                                                                                                                                                                                                                                                                                                                                                                                                                                                                                                                                                                                                                                                                                                                                                                                                                                                                                            ",
"                                                                                                                                                                                                                                                                                                                                                                                                                                                                                                                                                                                                                                                                                                                                                                                                                                                                                                                                                                                                                                                                                                                                            ",
"                                                                                                                                                                                                                                                                                                                                                                                                                                                                                                                                                                                                                                                                                                                                                                                                                                                                                                                                                                                                                                                                                                                                            ",
"                                                                                                                                                                                                                                                                                                                                                                                                                                                                                                                                                                                                                                                                                                                                                                                                                                                                                                                                                                                                                                                                                                                                            ",
"                                                                                                                                                                                                                                                                                                                                                                                                                                                                                                                                                                                                                                                                                                                                                                                                                                                                                                                                                                                                                                                                                                                                            ",
"                                                                                                                                                                                                                                                                                                                                                                                                                                                                                                                                                                                                                                                                                                                                                                                                                                                                                                                                                                                                                                                                                                                                            ",
"                                                                                                                                                                                                                                                                                                                                                                                                                                                                                                                                                                                                                                                                                                                                                                                                                                                                                                                                                                                                                                                                                                                                            ",
"                                                                                                                                                                                                                                                                                                                                                                                                                                                                                                                                                                                                                                                                                                                                                                                                                                                                                                                                                                                                                                                                                                                                            ",
"                                                                                                                                                                                                                                                                                                                                                                                                                                                                                                                                                                                                                                                                                                                                                                                                                                                                                                                                                                                                                                                                                                                                            ",
"                                                                                                                                                                                                                                                                                                                                                                                                                                                                                                                                                                                                                                                                                                                                                                                                                                                                                                                                                                                                                                                                                                                                            ",
"                                                                                                                                                                                                                                                                                                                                                                                                                                                                                                                                                                                                                                                                                                                                                                                                                                                                                                                                                                                                                                                                                                                                            ",
"                                                                                                                                                                                                                                                                                                                                                                                                                                                                                                                                                                                                                                                                                                                                                                                                                                                                                                                                                                                                                                                                                                                                            ",
"                                                                                                                                                                                                                                                                                                                                                                                                                                                                                                                                                                                                                                                                                                                                                                                                                                                                                                                                                                                                                                                                                                                                            ",
"                                                                                                                                                                                                                                                                                                                                                                                                                                                                                                                                                                                                                                                                                                                                                                                                                                                                                                                                                                                                                                                                                                                                            ",
"                                                                                                                                                                                                                                                                                                                                                                                                                                                                                                                                                                                                                                                                                                                                                                                                                                                                                                                                                                                                                                                                                                                                            ",
"                                                                                                                                                                                                                                                                                                                                                                                                                                                                                                                                                                                                                                                                                                                                                                                                                                                                                                                                                                                                                                                                                                                                            ",
"                                                                                                                                                                                                                                                                                                                                                                                                                                                                                                                                                                                                                                                                                                                                                                                                                                                                                                                                                                                                                                                                                                                                            ",
"                                                                                                                                                                                                                                                                                                                                                                                                                                                                                                                                                                                                                                                                                                                                                                                                                                                                                                                                                                                                                                                                                                                                            ",
"                                                                                                                                                                                                                                                                                                                                                                                                                                                                                                                                                                                                                                                                                                                                                                                                                                                                                                                                                                                                                                                                                                                                            ",
"                                                                                                                                                                                                                                                                                                                                                                                                                                                                                                                                                                                                                                                                                                                                                                                                                                                                                                                                                                                                                                                                                                                                            ",
"                                                                                                                                                                                                                                                                                                                                                                                                                                                                                                                                                                                                                                                                                                                                                                                                                                                                                                                                                                                                                                                                                                                                            ",
"                                                                                                                                                                                                                                                                                                                                                                                                                                                                                                                                                                                                                                                                                                                                                                                                                                                                                                                                                                                                                                                                                                                                            ",
"                                                                                                                                                                                                                                                                                                                                                                                                                                                                                                                                                                                                                                                                                                                                                                                                                                                                                                                                                                                                                                                                                                                                            ",
"                                                                                                                                                                                                                                                                                                                                                                                                                                                                                                                                                                                                                                                                                                                                                                                                                                                                                                                                                                                                                                                                                                                                            ",
"                                                                                                                                                                                                                                                                                                                                                                                                                                                                                                                                                                                                                                                                                                                                                                                                                                                                                                                                                                                                                                                                                                                                            ",
"                                                                                                                                                                                                                                                                                                                            o O # < 1 2 < # O o                                                                                                                                                                                                                                                                                                                                                                                                                                                                                                                                                                                                                                                                                                                                                                                             ",
"                                                                                                                                                                                                                                                                                                                o 3 7 n C G K K K K K K K K K K F V n 6 1 .                                                                                                                                                                                                                                                                                                                                                                                                                                                                                                                                                                                                                                                                                                                                                                                 ",
"                                                                                                                                                                                                                                                                                                        . 1 q C J K K K K K K K K K K K K K K K K K K K K J N 7 <                                                                                                                                                                                                                                                                                                                                                                                                                                                                                                                                                                                                                                                                                                                                                                           ",
"                                                                                                                                                                                                                                                                                                    # 9 D K K K K K K K K K K K K K K K K K K K K K K K K K K K K D 9 #                                                                                                                                                                                                                                                                                                                                                                                                                                                                                                                                                                                                                                                                                                                                                                     ",
"                                                                                                                                                                                                                                                                                              . 5 Z K K K K K K K K K K K K K K K K K K K K K K K K K K K K K K K K K K C 3                                                                                                                                                                                                                                                                                                                                                                                                                                                                                                                                                                                                                                                                                                                                                                 ",
"                                                                                                                                                                                                                                                                                          . 5 A K K K K K K K K K K K K K K K K K K K K K K K K K K K K K K K K K K K K K K A 5 .                                                                                                                                                                                                                                                                                                                                                                                                                                                                                                                                                                                                                                                                                                                                                           ",
"                                                                                                                                                                                                                                                                                        5 F K K K K K K K K K K K K K K K K K K K K K K K K K K K K K K K K K K K K K K K K K K A 3                                                                                                                                                                                                                                                                                                                                                                                                                                                                                                                                                                                                                                                                                                                                                         ",
"                                                                                                                                                                                                                                                                                    # C K K K K K K K K K K K K K K K K K K K K K K K K K K K K K K K K K K K K K K K K K K K K K K N #                                                                                                                                                                                                                                                                                                                                                                                                                                                                                                                                                                                                                                                                                                                                                     ",
"                                                                                                                                                                                                                                                                                . b J K K K K K K K K K K K K K K K K K K K K K K K K K K K K K K K K K K K K K K K K K K K K K K K K J 7                                                                                                                                                                                                                                                                                                                                                                                                                                                                                                                                                                                                                                                                                                                                                   ",
"                                                                                                                                                                                                                                                                              # C K K K K K K K K K K K K K K K K K K K K K K K K K K K K K K K K K K K K K K K K K K K K K K K K K K K K V O                                                                                                                                                                                                                                                                                                                                                                                                                                                                                                                                                                                                                                                                                                                                               ",
"                                                                                                                                                                                                                                                                            3 G K K K K K K K K K K K K K K K K K K K K K K K K K K K K K K K K K K K K K K K K K K K K K K K K K K K K K K G 2                                                                                                                                                                                                                                                                                                                                                                                                                                                                                                                                                                                                                                                                                                                                             ",
"                                                                                                                                                                                                                                                                          b K K K K K K K K K K K K K K K K K K K K K K D V n 6 5 4 3 3 4 5 7 n C F K K K K K K K K K K K K K K K K K K K K K K 6                                                                                                                                                                                                                                                                                                                                                                                                                                                                                                                                                                                                                                                                                                                                           ",
"                                                                                                                                                                                                                                                                      . m K K K K K K K K K K K K K K K K K K K A n 3 o                             O 4 n D K K K K K K K K K K K K K K K K K K K 9                                                                                                                                                                                                                                                                                                                                                                                                                                                                                                                                                                                                                                                                                                                                         ",
"                                                                                                                                                                                                                                                                    . M K K K K K K K K K K K K K K K K K G n <                                             < b G K K K K K K K K K K K K K K K K K n .                                                                                                                                                                                                                                                                                                                                                                                                                                                                                                                                                                                                                                                                                                                                     ",
"                                                                                                                                                                                                                                                                  . N K K K K K K K K K K K K K K K K A 5 .                                                     o 6 F K K K K K K K K K K K K K K K K m                                                                                                                                                                                                                                                                                                                                                                                                                                                                                                                                                                                                                                                                                                                                     ",
"                                                                                                                                                                                                                                                                  M K K K K K K K K K K K K K K K A 4                                                               . 6 G K K K K K K K K K K K K K K K b                                                                                                                                                                                                                                                                                                                                                                                                                                                                                                                                                                                                                                                                                                                                   ",
"                                                                                                                                                                                                                                                                b K K K K K K K K K K K K K K J b o                                                                     o b K K K K K K K K K K K K K K K 6                                                                                                                           = , e u w > *                                                                                                                                                                                                                                                                                                                                                                                                                                                                                                                                                                                         ",
"                                                                                                                                                                                                                                                              7 K K K K K K K K K K K K K K Z #                                     o o                                     < F K K K K K K K K K K K K K K 4                                                                                                               $ a W O.t.k.k.k.k.k.k.k.w. .R u +                                                                                             . & & & & & & & %                                                                                                                                                                                                                                                                                                                                                                                                                                                                 ",
"                                                                                                                                                                                                                                                            1 J K K K K K K K K K K K K K n .                                     7 K J 4                                     o m K K K K K K K K K K K K K G #                                                                                                         w ^ t.k.k.k.k.k.k.k.k.k.k.k.k.k.k.k.w.W >                                                                                         ; k.k.k.k.k.k.k.2.                                                                                                                                                                                                                                                                                                                                                                                                                                                                ",
"                                                                                                                                                                                                                                                          O F K K K K K K K K K K K K J 4                                       o K K K G                                         7 K K K K K K K K K K K K K Z .                                                                                                   > _ k.k.k.k.k.k.k.k.k.k.k.k.k.k.k.k.k.k.k.k.k._ :                                                                                     ; k.k.k.k.k.k.k.2.                                                                                                                                                                                                                                                                                                                                                                                                                                                                ",
"                                                                                                                                                                                                                                                          N K K K K K K K K K K K K G 2                                 O 4 #   # K K K K     < 3 o                                 5 J K K K K K K K K K K K K n                                                                                               + T k.k.k.k.k.k.k.k.k.k.k.k.k.k.k.k.k.k.k.k.k.k.k.k.t.v .   .                                   - : : : : : : : +                         ; k.k.k.k.k.k.k.2.                                                                                                                                                                                                                                                                                                                                                                                                                                                                ",
"                                                                                                                                                                                                                                                        5 K K K K K K K K K K K K G <                                 O F K J 3 # K K K K   6 K K Z                                   3 J K K K K K K K K K K K K 1                                                                                           : #.k.k.k.k.k.k.k.k.k.k.k.k.k.k.k.k.k.k.k.k.k.k.k.k.k.k.k.| =                                     ..k.k.k.k.k.k.k.y                         ; k.k.k.k.k.k.k.2.                                                                                                                                                                                                                                                                                                                                                                                                                                                                ",
"                                                                                                                                                                                                                                                      o G K K K K K K K K K K K J <                                   4 K K K M # K K K K   Z K K K <                                   3 K K K K K K K K K K K K A .                                                                                       y 4.k.k.k.k.k.k.k.k.k.k.k.k.k.k.k.k.k.k.k.k.k.k.k.k.k.k.k.k.k.:.0                                   ..k.k.k.k.k.k.k.y                         ; k.k.k.k.k.k.k.2.                                                                                                                                                                                                                                                                                                                                                                                                                                                                ",
"                                                                                                                                                                                                                                                      n K K K K K K K K K K K J 3                                     5 K K K N # K K K K   A K K K 2                                     5 K K K K K K K K K K K K 7                                                                                     y t.k.k.k.k.k.k.k.k.k.k.k.k.k.k.t.w.k.k.k.k.k.k.k.k.k.k.k.k.k.k.k.0.0                                 ..k.k.k.k.k.k.k.y                         ; k.k.k.k.k.k.k.2.                                                                                                                                                                                                                                                                                                                                                                                                                                                                ",
"                                                                                                                                                                                                                                                    < K K K K K K K K K K K K 6                             o M F b   6 K K K N # K K K K   A K K K 2 o m F m                               b K K K K K K K K K K K G O                                                                                 w t.k.k.k.k.k.k.k.k.k.k.k.' k w +       $ e z [ k.k.k.k.k.k.k.k.k.k.k.4.:                               ..k.k.k.k.k.k.k.y                         ; k.k.k.k.k.k.k.2.                                                                                                                                                                                                                                                                                                                                                                                                                                                                ",
"                                                                                                                                                                                                                                                    N K K K K K K K K K K K N                               b K K K 3 6 K K K N # K K K K   A K K K 2 6 K K K 5                             . C K K K K K K K K K K K b                                                                               * :.k.k.k.k.k.k.k.k.k.k.W -                       : / k.k.k.k.k.k.k.k.k.k.#.+                             ..k.k.k.k.k.k.k.y                         & T T T T T T T P                                                                                                                                                                                                                                                                                                                                                                                                                                                                 ",
"                                                                                                                                                                                                                                                  # K K K K K K K K K K K D o                               M K K K 6 6 K K K N # K K K K   A K K K 2 n K K K b                               # G K K K K K K K K K K J O                                                                           . [ k.k.k.k.k.k.k.k.k.*.w                               y 2.k.k.k.k.k.k.k.k.k.^                             ..k.k.k.k.k.k.k.y                                                                                                                                                                                                                                                                                                                                                                                                                                                                                                           ",
"                                                                                                                                                                                                                                                  M K K K K K K K K K K K 3                           .     M K K K 6 6 K K K N # K K K K   A K K K 2 n K K K b     .                           6 K K K K K K K K K K K q                                                                           h k.k.k.k.k.k.k.k.k.} %                                   - #.k.k.k.k.k.k.k.k.k.u                           ..k.k.k.k.k.k.k.y                                                                                                                                                                                                                                                                                                                                                                                                                                                                                                           ",
"                                                                                                                                                                                                                                                # K K K K K K K K K K K M                         2 G J 6   M K K K 6 5 K K K N # K K K K   A K K K 2 n K K K b   b J A #                       . Z K K K K K K K K K K G o                                                                       % 4.k.k.k.k.k.k.k.k.X.$                                       * -.k.k.k.k.k.k.k.k.-.X                         ..k.k.k.k.k.k.k.y                                                                                                                                                                                                                                                                                                                                                                                                                                                                                                           ",
"                                                                                                                                                                                                                                                b K K K K K K K K K K J #                         A K K K o M K K K 6 5 K K K N # K K K K   A K K K 2 n K K K b # K K K N                         < K K K K K K K K K K K 5                                                                       U k.k.k.k.k.k.k.k.4.;                                           0 t.k.k.k.k.k.k.k.k.k                         ..k.k.k.k.k.k.k.y                                                                                                                                                                                                                                                                                                                                                                                                                                                                                                           ",
"                                                                                                                                                                                                                                                F K K K K K K K K K K b                           J K K K # M K K K 6 6 K K K N # K K K K   A K K K 2 n K K K b 3 K K K A                           N K K K K K K K K K K C                                                                     % t.k.k.k.k.k.k.k.k.z                                               P k.k.k.k.k.k.k.k.:.X                       ..k.k.k.k.k.k.k.y                                                                                   $ - : > = $                                                                                                                                                                                                                                                                                                                                                                                                             ",
"                                                                                                                                                                                                                                              2 K K K K K K K K K K J #                   O o     J K K K # M K K K 6 5 K K K N # K K K K   A K K K 2 n K K K b 3 K K K A     o o                   < K K K K K K K K K K K #                                                                   z k.k.k.k.k.k.k.k.*.X                                               X :.k.k.k.k.k.k.k.k.a           , w w w w w #.k.k.k.k.k.k.k.k w w w w w w =           X w w w w w w w 0                               * d ! ..4.k.k.k.k.k.k.4.{ R r .                                                                                                                                                                                                                                                                                                                                                                                                   ",
"                                                                                                                                                                                                                                              m K K K K K K K K K K n                   n K J 3   J K K K # M K K K 6 5 K K K N # K K K K   A K K K 2 n K K K b 3 K K K A   5 J K 7                   C K K K K K K K K K K 8                                                                   O.k.k.k.k.k.k.k.k.s                                                   l k.k.k.k.k.k.k.k.'           *.k.k.k.k.k.k.k.k.k.k.k.k.k.k.k.k.k.k.k.k.I           ; k.k.k.k.k.k.k.2.                          e _ k.k.k.k.k.k.k.k.k.k.k.k.k.k.k.4.L +                                                                                                                                                                                                                                                                                                                                                                                               ",
"                                                                                                                                                                                                                                              G K K K K K K K K K K <                 # K K K Z   J K K K # M K K K 6 5 K K K N # K K K K   A K K K 2 n K K K b 3 K K K A   G K K K o                 4 K K K K K K K K K K Z                                                                 : k.k.k.k.k.k.k.k.4..                                                   % t.k.k.k.k.k.k.k.k.%         *.k.k.k.k.k.k.k.k.k.k.k.k.k.k.k.k.k.k.k.k.I           ; k.k.k.k.k.k.k.2.                      & ) k.k.k.k.k.k.k.k.k.k.k.k.k.k.k.k.k.k.k.2.a                                                                                                                                                                                                                                                                                                                                                                                             ",
"                                                                                                                                                                                                                                            # K K K K K K K K K K A                   1 K K K F   J K K K # M K K K 6 6 K K K N # K K K K   A K K K 2 n K K K b 3 K K K A   K K K K O                 o G K K K K K K K K K K o                                                               v k.k.k.k.k.k.k.k.W                                                       ` k.k.k.k.k.k.k.k.g         *.k.k.k.k.k.k.k.k.k.k.k.k.k.k.k.k.k.k.k.k.I           ; k.k.k.k.k.k.k.2.                    0 :.k.k.k.k.k.k.k.k.k.k.k.k.k.k.k.k.k.k.k.k.k.k.P                                                                                                                                                                                                                                                                                                                                                                                           ",
"                                                                                                                                                                                                                                            7 K K K K K K K K K K 7           5 M 6   1 K K K F   J K K K # M K K K 6 5 K K K N # K K K K   A K K K 2 n K K K b 3 K K K A   K K K K O . 9 M 3           n K K K K K K K K K K 3                                                               [ k.k.k.k.k.k.k.k.r                                                       d k.k.k.k.k.k.k.k.^         *.k.k.k.k.k.k.k.k.k.k.k.k.k.k.k.k.k.k.k.k.I           ; k.k.k.k.k.k.k.2.                  ; 4.k.k.k.k.k.k.k.k.k.k.k.k.k.k.k.k.k.k.k.k.k.k.k.k.v                                                                                                                                                                                                                                                                                                                                                                                         ",
"                                                                                                                                                                                                                                            N K K K K K K K K K K #         2 K K K 5 1 K K K F   J K K K # M K K K 7 6 K K K N # K K K K   A K K K 2 n K K K b 3 K K K A   K K K K O 9 K K J #         3 K K K K K K K K K K b                                                             . w.k.k.k.k.k.k.k.t..                                                       % k.k.k.k.k.k.k.k.*.        *.k.k.k.k.k.k.k.k.k.k.k.k.k.k.k.k.k.k.k.k.I           ; k.k.k.k.k.k.k.2.                X *.k.k.k.k.k.k.k.k.k.k.k.k.k.k.k.k.k.k.k.k.k.k.k.k.k.k.y                                                                                                                                                                                                                                                                                                                                                                                       ",
"                                                                                                                                                                                                                                            G K K K K K K K K K F           8 K K K n 1 K K K F   J K K K # M K K K 6 6 K K K N # K K K K   A K K K 2 n K K K b 3 K K K A   K K K K O N K K K 5         o J K K K K K K K K K Z                                                             : k.k.k.k.k.k.k.k.|                                                           :.k.k.k.k.k.k.k.k.$       ` O.O.O.O.O.t.k.k.k.k.k.k.k.*.O.O.O.O.O.O.k           ; k.k.k.k.k.k.k.2.                z k.k.k.k.k.k.k.k.k.X.T a r w y h W 2.k.k.k.k.k.k.k.k.k.-.X                                                                                                                                                                                                                                                                                                                                                                                     ",
"                                                                                                                                                                                                                                          O K K K K K K K K K K m   3 7 #   q K K K n 1 K K K F   G K K K # M K K K 6 5 K K K N # K K K K   A K K K 2 n K K K b 3 K K K A . K K K K O V K K K 5   # 7 1   Z K K K K K K K K K J                                                             p k.k.k.k.k.k.k.k.Q                                                           ` k.k.k.k.k.k.k.k.w                   ..k.k.k.k.k.k.k.y                         ; k.k.k.k.k.k.k.2.                O.k.k.k.k.k.k.k.2.r                 . d 4.k.k.k.k.k.k.k.k.g                                                                                                                                                                                                                                                                                                                                                                                     ",
"                                                                                                                                                                                                                                          2 K K K K K K K K K K 6 7 K K G O q K K K n 1 K K K F   J K K K # M K K K 6 5 K K K N # K K K K   A K K K 2 n K K K b 3 K K K A . K K K K O V K K K 5 # J K K 3 b K K K K K K K K K K O                                                           z k.k.k.k.k.k.k.k.l                                                           U k.k.k.k.k.k.k.k.a                   ..k.k.k.k.k.k.k.y                         ; k.k.k.k.k.k.k.2.              + k.k.k.k.k.k.k.k.e                       e k.k.k.k.k.k.k.k.'                                                                                                                                                                                                                                                                                                                                                                                     ",
"                                                                                                                                                                                                                                          5 K K K K K K K K K K 1 C K K K 3 q K K K n 1 K K K F   J K K K # M K K K 6 5 K K K N # K K K K   A K K K 2 n K K K b 3 K K K A   K K K K O V K K K 5 6 K K K m 5 K K K K K K K K K K 1                                                           T k.k.k.k.k.k.k.k.d                                                           x k.k.k.k.k.k.k.k.z                   ..k.k.k.k.k.k.k.y                         ; k.k.k.k.k.k.k.2.              ; k.k.k.k.k.k.k.4.                          / k.k.k.k.k.k.k.4.                                                                                                                                                                                                                                                                                                                                                                                    ",
"                                                                                                                                                                                                                                          b K K K K K K K K K K O Z K K K 4 q K K K n 1 K K K F   J K K K # M K K K 6 5 K K K N # K K K K   A K K K 2 n K K K b 3 K K K A   K K K K # V K K K 5 7 K K K M < K K K K K K K K K K 6                                                           W k.k.k.k.k.k.k.k.u                                                           h k.k.k.k.k.k.k.k.L                   ..k.k.k.k.k.k.k.y                         ; k.k.k.k.k.k.k.2.              : k.k.k.k.k.k.k.t..                         p k.k.k.k.k.k.k.k.;                                                                                                                                                                                                                                                                                                                                                                                   ",
"                                                                                                                                                                                                                                          m K K K K K K K K K G   Z K K K 4 q K K K n 1 K K K F   J K K K # M K K K 6 6 K K K N # K K K K   A K K K 2 n K K K b 3 K K K A . K K K K O V K K K 5 7 K K K M O K K K K K K K K K K 8                                                           ~ k.k.k.k.k.k.k.k.e                                                           a k.k.k.k.k.k.k.k.U                   ..k.k.k.k.k.k.k.y                         ; k.k.k.k.k.k.k.2.              % k.k.k.k.k.k.k.k.a                                                                                                                                                                                                                                                                                                                                                                                                                               ",
"                                                                                                                                                                                                                                          M K K K K K K K K K A   Z K K K 4 q K K K n 1 K K K F   J K K K # M K K K 6 6 K K K N # K K K K   A K K K 2 n K K K b 3 K K K A . K K K K O V K K K 5 7 K K K M   K K K K K K K K K K b                                                           ^ k.k.k.k.k.k.k.k.w                                                           p k.k.k.k.k.k.k.k.Y                   ..k.k.k.k.k.k.k.y                         ; k.k.k.k.k.k.k.2.                t.k.k.k.k.k.k.k.0.u                                                                                                                                                                                                                                                                                                                                                                                                                             ",
"                                                                                                                                                                                                                                          N K K K K K K K K K Z   Z K K K 4 q K K K n 1 K K K F   J K K K # M K K K 7 6 K K K N # K K K K   A K K K 2 n K K K b 3 K K K A   K K K K O V K K K 5 7 K K K M   G K K K K K K K K K n                                                           Q k.k.k.k.k.k.k.k.y                                                           h k.k.k.k.k.k.k.k.P                   ..k.k.k.k.k.k.k.y                         ; k.k.k.k.k.k.k.2.                [ k.k.k.k.k.k.k.k.k.` t .                                                                                                                                                                                                                                                                                                                                                                                                                       ",
"                                                                                                                                                                                                                                          C K K K K K K K K K B   Z K K K 4 q K K K n 1 K K K F   J K K K # M K K K 7 6 K K K N # K K K K   A K K K 2 n K K K b 3 K K K A   K K K K O V K K K 5 7 K K K M   F K K K K K K K K K m                                                           R k.k.k.k.k.k.k.k.s                                                           z k.k.k.k.k.k.k.k.x                   ..k.k.k.k.k.k.k.y                         ; k.k.k.k.k.k.k.2.                g k.k.k.k.k.k.k.k.k.k.k.w.` l :                                                                                                                                                                                                                                                                                                                                                                                                                 ",
"                                                                                                                                                                                                                                          Z K K K K K K K K K N   Z K K K 4 q K K K n 1 K K K F   J K K K # M K K K 6 5 K K K N # K K K K   A K K K 2 n K K K b 3 K K K A   K K K K O V K K K 5 7 K K K M   A K K K K K K K K K M                                                           c k.k.k.k.k.k.k.k.j                                                           I k.k.k.k.k.k.k.k.d                   ..k.k.k.k.k.k.k.y                         ; k.k.k.k.k.k.k.2.                . } k.k.k.k.k.k.k.k.k.k.k.k.k.k.0.[ Y a %                                                                                                                                                                                                                                                                                                                                                                                                       ",
"                                                                                                                                                                                                                                          C K K K K K K K K K B   Z K K K 4 q K K K n 1 K K K F   J K K K # M K K K 6 5 K K K N # K K K K   A K K K 2 n K K K b 3 K K K A   K K K K O V K K K 5 7 K K K M   F K K K K K K K K K m                                                           s k.k.k.k.k.k.k.k.E                                                           ) k.k.k.k.k.k.k.k.e                   ..k.k.k.k.k.k.k.y                         ; k.k.k.k.k.k.k.2.                  ; 4.k.k.k.k.k.k.k.k.k.k.k.k.k.k.k.k.k.k.} P w .                                                                                                                                                                                                                                                                                                                                                                                               ",
"                                                                                                                                                                                                                                          N K K K K K K K K K Z   Z K K K 4 q K K K n 1 K K K F   J K K K # M K K K 6 5 K K K N # K K K K   A K K K 2 n K K K b 3 K K K A . K K K K O V K K K 5 7 K K K M   G K K K K K K K K K n                                                           0 k.k.k.k.k.k.k.k.}                                                           *.k.k.k.k.k.k.k.k.&                   ..k.k.k.k.k.k.k.y                         ; k.k.k.k.k.k.k.2.                    : -.k.k.k.k.k.k.k.k.k.k.k.k.k.k.k.k.k.k.k.k.*.x $                                                                                                                                                                                                                                                                                                                                                                                           ",
"                                                                                                                                                                                                                                          M K K K K K K K K K A   Z K K K 4 q K K K n 1 K K K F   J K K K # M K K K 6 5 K K K N # K K K K   A K K K 2 n K K K b 3 K K K A   K K K K O V K K K 5 7 K K K M   K K K K K K K K K K b                                                           X t.k.k.k.k.k.k.k.w..                                                       $ k.k.k.k.k.k.k.k.:.                    ..k.k.k.k.k.k.k.y                         ; k.k.k.k.k.k.k.2.                      $ E k.k.k.k.k.k.k.k.k.k.k.k.k.k.k.k.k.k.k.k.k.:.a                                                                                                                                                                                                                                                                                                                                                                                         ",
"                                                                                                                                                                                                                                          m K K K K K K K K K G   Z K K K 4 q K K K n 1 K K K F   J K K K # M K K K 6 6 K K K N # K K K K   A K K K 2 n K K K b 3 K K K A   K K K K O V K K K 5 7 K K K M O K K K K K K K K K K 9                                                             | k.k.k.k.k.k.k.k.0                                                       i k.k.k.k.k.k.k.k._                     ..k.k.k.k.k.k.k.y                         ; k.k.k.k.k.k.k.2.                          ; T 2.k.k.k.k.k.k.k.k.k.k.k.k.k.k.k.k.k.k.k.k.I                                                                                                                                                                                                                                                                                                                                                                                       ",
"                                                                                                                                                                                                                                          b K K K K K K K K K K O Z K K K 4 q K K K n 1 K K K F   J K K K # M K K K 6 6 K K K N # K K K K   A K K K 2 n K K K b 3 K K K A   K K K K O V K K K 5 7 K K K M < K K K K K K K K K K 5                                                             U k.k.k.k.k.k.k.k.T                                                       / k.k.k.k.k.k.k.k.l                     ..k.k.k.k.k.k.k.y                         ; k.k.k.k.k.k.k.2.                              . 0 v [ d.k.k.k.k.k.k.k.k.k.k.k.k.k.k.k.k.k.v                                                                                                                                                                                                                                                                                                                                                                                     ",
"                                                                                                                                                                                                                                          5 K K K K K K K K K K 1 C K K K 3 q K K K n 1 K K K F   J K K K # M K K K 7 6 K K K N # K K K K   A K K K 2 n K K K b 3 K K K A   K K K K O V K K K 5 6 K K K m 5 K K K K K K K K K K 1                                                             e k.k.k.k.k.k.k.k.:..                                                   + t.k.k.k.k.k.k.k.k.-                     ..k.k.k.k.k.k.k.y                         ; k.k.k.k.k.k.k.2.                                      + r c ) :.k.k.k.k.k.k.k.k.k.k.k.k.k.k.w                                                                                                                                                                                                                                                                                                                                                                                   ",
"                                                                                                                                                                                                                                          2 K K K K K K K K K K 6 6 K K F o q K K K n 1 K K K F   J K K K # M K K K 7 6 K K K N # K K K K   A K K K 2 n K K K b 3 K K K A . K K K K O V K K K 5 # J K K 3 b K K K K K K K K K K O                                                             . :.k.k.k.k.k.k.k.k.y                                                   g k.k.k.k.k.k.k.k.X.                      ..k.k.k.k.k.k.k.y                         ; k.k.k.k.k.k.k.2.                                                ; j ) 4.k.k.k.k.k.k.k.k.k.k.]                                                                                                                                                                                                                                                                                                                                                                                   ",
"                                                                                                                                                                                                                                          O K K K K K K K K K K m   3 7 #   q K K K n 1 K K K F   J K K K # M K K K 6 5 K K K N # K K K K   A K K K 2 n K K K b 3 K K K A . K K K K O V K K K 5   # 7 1   C K K K K K K K K K G                                                                 I k.k.k.k.k.k.k.k....                                               . #.k.k.k.k.k.k.k.k.k                       ..k.k.k.k.k.k.k.y                         ; k.k.k.k.k.k.k.2.                                                      X j :.k.k.k.k.k.k.k.k.k.&                                                                                                                                                                                                                                                                                                                                                                                 ",
"                                                                                                                                                                                                                                            G K K K K K K K K K F           8 K K K n 1 K K K F   J K K K # M K K K 6 5 K K K N # K K K K   A K K K 2 n K K K b 3 K K K A . K K K K O N K K K 5         o J K K K K K K K K K Z                                                                 - k.k.k.k.k.k.k.k.k.g                                               k k.k.k.k.k.k.k.k.t.$                       ..k.k.k.k.k.k.k.y                         ; k.k.k.k.k.k.k.2.                                                          & | k.k.k.k.k.k.k.k.t                                                                                                                                                                                                                                                                                                                                                                                 ",
"                                                                                                                                                                                                                                            M K K K K K K K K K K #         3 K K K 5 1 K K K F   J K K K # M K K K 6 5 K K K N # K K K K   A K K K 2 n K K K b 3 K K K A   K K K K O 8 K K J #         3 K K K K K K K K K K b                                                                   ~ k.k.k.k.k.k.k.k.:.&                                           - 4.k.k.k.k.k.k.k.k.U                         ..k.k.k.k.k.k.k.y                         ; k.k.k.k.k.k.k.2.              x L L L L L L L %                             - t.k.k.k.k.k.k.k.g                                                                                                                                                                                                                                                                                                                                                                                 ",
"                                                                                                                                                                                                                                            6 K K K K K K K K K K 7           5 M 6   1 K K K F   J K K K # M K K K 6 5 K K K N # K K K K   A K K K 2 n K K K b 3 K K K A   K K K K O . 8 M 3           m K K K K K K K K K K 3                                                                   ; d.k.k.k.k.k.k.k.k.' X                                       + X.k.k.k.k.k.k.k.k.w.%                         ..k.k.k.k.k.k.k.y                         ; k.k.k.k.k.k.k.2.              :.k.k.k.k.k.k.k.y                               ] k.k.k.k.k.k.k.z                                                                                                                                                                                                                                                                                                                                                                                 ",
"                                                                                                                                                                                                                                            # K K K K K K K K K K A                   1 K K K F   G K K K # M K K K 6 6 K K K N # K K K K   A K K K 2 n K K K b 3 K K K A   K K K K O                 o G K K K K K K K K K K o                                                                     U k.k.k.k.k.k.k.k.k.) X                                   $ [ k.k.k.k.k.k.k.k.k.k                           ..k.k.k.k.k.k.k.a                         ; k.k.k.k.k.k.k.2.              | k.k.k.k.k.k.k.Y                               ( k.k.k.k.k.k.k.h                                                                                                                                                                                                                                                                                                                                                                                 ",
"                                                                                                                                                                                                                                              G K K K K K K K K K K <                 # K K K Z   J K K K # M K K K 6 5 K K K N # K K K K   A K K K 2 n K K K b 3 K K K A   G K K J o                 4 K K K K K K K K K K Z                                                                       + *.k.k.k.k.k.k.k.k.k.} =                               : O.k.k.k.k.k.k.k.k.k.} .                           | k.k.k.k.k.k.k.j                         ; k.k.k.k.k.k.k.2.              ! k.k.k.k.k.k.k.4.$                             O.k.k.k.k.k.k.k.r                                                                                                                                                                                                                                                                                                                                                                                 ",
"                                                                                                                                                                                                                                              m K K K K K K K K K K n                   n K G 3   J K K K # M K K K 6 5 K K K N # K K K K   A K K K 2 n K K K b 3 K K K A   5 J K 7                   C K K K K K K K K K K 7                                                                         , t.k.k.k.k.k.k.k.k.k.w.z +                       $ P t.k.k.k.k.k.k.k.k.k.4.-                             ' k.k.k.k.k.k.k.)                         ; k.k.k.k.k.k.k.2.              a k.k.k.k.k.k.k.k.) X                         g k.k.k.k.k.k.k.t.$                                                                                                                                                                                                                                                                                                                                                                                 ",
"                                                                                                                                                                                                                                              2 K K K K K K K K K K J #                   O o     J K K K # M K K K 6 5 K K K N # K K K K   A K K K 2 n K K K b 3 K K K A     o o                   < K K K K K K K K K K K #                                                                           g k.k.k.k.k.k.k.k.k.k.k.4.R y $           & u Q w.k.k.k.k.k.k.k.k.k.k.k.u                               ^ k.k.k.k.k.k.k.k.z X         .           ; k.k.k.k.k.k.k.2.              X 2.k.k.k.k.k.k.k.k.} 0                   + P k.k.k.k.k.k.k.k.)                                                                                                                                                                                                                                                                                                                                                                                   ",
"                                                                                                                                                                                                                                                D K K K K K K K K K K b                           J K K K # M K K K 6 6 K K K N # K K K K   A K K K 2 n K K K b 3 K K K A                           N K K K K K K K K K K C                                                                               z k.k.k.k.k.k.k.k.k.k.k.k.k.k.:.#.O.*.4.k.k.k.k.k.k.k.k.k.k.k.k.k.k.d                                 v k.k.k.k.k.k.k.k.k.t.O.O.O.4.I           ; k.k.k.k.k.k.k.2.                z k.k.k.k.k.k.k.k.k.k.| L u w > e p x ) w.k.k.k.k.k.k.k.k.k.,                                                                                                                                                                                                                                                                                                                                                                                   ",
"                                                                                                                                                                                                                                                9 K K K K K K K K K K J #                         A K K K o M K K K 6 6 K K K N # K K K K   A K K K 2 n K K K b # K K K N                         < K K K K K K K K K K K 5                                                                                 z k.k.k.k.k.k.k.k.k.k.k.k.k.k.k.k.k.k.k.k.k.k.k.k.k.k.k.k.k.k.t.d                                   r k.k.k.k.k.k.k.k.k.k.k.k.k.k.I           ; k.k.k.k.k.k.k.2.                . | k.k.k.k.k.k.k.k.k.k.k.k.k.k.k.k.k.k.k.k.k.k.k.k.k.k.k.P                                                                                                                                                                                                                                                                                                                                                                                     ",
"                                                                                                                                                                                                                                                # K K K K K K K K K K K M                         2 G J 6   M K K K 6 6 K K K N # K K K K   A K K K 2 n K K K b   b J A #                       . Z K K K K K K K K K K G o                                                                                   i t.k.k.k.k.k.k.k.k.k.k.k.k.k.k.k.k.k.k.k.k.k.k.k.k.k.k.k.2.e                                     . :.k.k.k.k.k.k.k.k.k.k.k.k.k.I           ; k.k.k.k.k.k.k.2.                  - :.k.k.k.k.k.k.k.k.k.k.k.k.k.k.k.k.k.k.k.k.k.k.k.k.k./ .                                                                                                                                                                                                                                                                                                                                                                                     ",
"                                                                                                                                                                                                                                                  M K K K K K K K K K K K 3                           .     M K K K 6 5 K K K N # K K K K   A K K K 2 n K K K b     .                           6 K K K K K K K K K K K q                                                                                       ; [ k.k.k.k.k.k.k.k.k.k.k.k.k.k.k.k.k.k.k.k.k.k.k.k.k.) *                                         g k.k.k.k.k.k.k.k.k.k.k.k.k.I           ; k.k.k.k.k.k.k.2.                    ; #.k.k.k.k.k.k.k.k.k.k.k.k.k.k.k.k.k.k.k.k.k.k.k.R .                                                                                                                                                                                                                                                                                                                                                                                       ",
"                                                                                                                                                                                                                                                  # K K K K K K K K K K K D o                               M K K K 6 5 K K K N # K K K K   A K K K 2 n K K K b                               # G K K K K K K K K K K J O                                                                                         . g -.k.k.k.k.k.k.k.k.k.k.k.k.k.k.k.k.k.k.k.k.k.#.p                                               L k.k.k.k.k.k.k.k.k.k.k.k.I           ; k.k.k.k.k.k.k.2.                      + Y t.k.k.k.k.k.k.k.k.k.k.k.k.k.k.k.k.k.k.k.#.u                                                                                                                                                                                                                                                                                                                                                                                           ",
"                                                                                                                                                                                                                                                    M K K K K K K K K K K K N                               b K K K 3 5 K K K N # K K K K   A K K K 2 6 K K K 5                             . Z K K K K K K K K K K K b                                                                                               X j X.k.k.k.k.k.k.k.k.k.k.k.k.k.k.k.k.k.} g .                                                   e ` k.k.k.k.k.k.k.k.k.k.I           ; k.k.k.k.k.k.k.2.                          : ! 0.k.k.k.k.k.k.k.k.k.k.k.k.k.k.k.} a .                                                                                                                                                                                                                                                                                                                                                                                             ",
"                                                                                                                                                                                                                                                    < K K K K K K K K K K K K 6                             o M F b   5 K K K N # K K K K   A K K K 2 o m F m                               n K K K K K K K K K K K G O                                                                                                     , v [ t.k.k.k.k.k.k.k.k.k.4.' x :                                                             + r k L T T I v h t *           X w w w w w w w 0                               X a E [ w.k.k.k.k.k.k.t.X.^ j *                                                                                                                                                                                                                                                                                                                                                                                                   ",
"                                                                                                                                                                                                                                                      n K K K K K K K K K K K K 3                                     6 K K K N # K K K K   A K K K 2                                     6 K K K K K K K K K K K K 6                                                                                                               * r a g l g a e &                                                                                                                                                               + = > 0 ; &                                                                                                                                                                                                                                                                                                                                                                                                             ",
"                                                                                                                                                                                                                                                      o G K K K K K K K K K K K J 1                                   4 K K K M # K K K K   Z K K K <                                   4 K K K K K K K K K K K K A .                                                                                                                                                                                                                                                                                                                                                                                                                                                                                                                                                                                                                                                                                                                       ",
"                                                                                                                                                                                                                                                        5 K K K K K K K K K K K K G <                                 O F K J 3 # K K K K   6 K K Z                                   3 J K K K K K K K K K K K K 2                                                                                                                                                                                                                                                                                                                                                                                                                                                                                                                                                                                                                                                                                                                         ",
"                                                                                                                                                                                                                                                          N K K K K K K K K K K K K G 2                                 O 4 #   # K K K K     < 3 o                                 5 J K K K K K K K K K K K K b                                                                                                                                                                                                                                                                                                                                                                                                                                                                                                                                                                                                                                                                                                                           ",
"                                                                                                                                                                                                                                                          O F K K K K K K K K K K K K J 4                                       o K K K F                                         7 K K K K K K K K K K K K K Z .                                                                                                                                                                                                                                                                                                                                                                                                                                                                                                                                                                                                                                                                                                                           ",
"                                                                                                                                                                                                                                                            < J K K K K K K K K K K K K K m o                                     7 K J 4                                     o M K K K K K K K K K K K K K G #                                                                                                                                                                                                                                                                                                                                                                                                                                                                                                                                                                                                                                                                                                                             ",
"                                                                                                                                                                                                                                                              7 K K K K K K K K K K K K K K Z #                                     o o                                     < D K K K K K K K K K K K K K K 3                                                                                                                                                                                                                                                                                                                                                                                                                                                                                                                                                                                                                                                                                                                               ",
"                                                                                                                                                                                                                                                                b K K K K K K K K K K K K K K J b o                                                                     o b K K K K K K K K K K K K K K K 6                                                                                                                                                                                                                                                                                                                                                                                                                                                                                                                                                                                                                                                                                                                                 ",
"                                                                                                                                                                                                                                                                  M K K K K K K K K K K K K K K K D 4 .                                                             o 6 G K K K K K K K K K K K K K K K 9                                                                                                                                                                                                                                                                                                                                                                                                                                                                                                                                                                                                                                                                                                                                   ",
"                                                                                                                                                                                                                                                                    N K K K K K K K K K K K K K K K K A 5                                                       o 7 F K K K K K K K K K K K K K K K K m                                                                                                                                                                                                                                                                                                                                                                                                                                                                                                                                                                                                                                                                                                                                     ",
"                                                                                                                                                                                                                                                                    . M K K K K K K K K K K K K K K K K K G n <                                             < n G K K K K K K K K K K K K K K K K K n                                                                                                                                                                                                                                                                                                                                                                                                                                                                                                                                                                                                                                                                                                                                       ",
"                                                                                                                                                                                                                                                                      . n K K K K K K K K K K K K K K K K K K K A n 4 O                             O 5 m F K K K K K K K K K K K K K K K K K K K 9                                                                                                                                                                                                                                                                                                                                                                                                                                                                                                                                                                                                                                                                                                                                         ",
"                                                                                                                                                                                                                                                                          9 K K K K K K K K K K K K K K K K K K K K K K D N n 7 5 4 3 3 4 5 7 n B G K K K K K K K K K K K K K K K K K K K K K J 5                                                                                                                                                                                                                                                                                                                                                                                                                                                                                                                                                                                                                                                                                                                                           ",
"                                                                                                                                                                                                                                                                            3 G K K K K K K K K K K K K K K K K K K K K K K K K K K K K K K K K K K K K K K K K K K K K K K K K K K K K K K F <                                                                                                                                                                                                                                                                                                                                                                                                                                                                                                                                                                                                                                                                                                                                             ",
"                                                                                                                                                                                                                                                                              # C K K K K K K K K K K K K K K K K K K K K K K K K K K K K K K K K K K K K K K K K K K K K K K K K K K K K N O                                                                                                                                                                                                                                                                                                                                                                                                                                                                                                                                                                                                                                                                                                                                               ",
"                                                                                                                                                                                                                                                                                  b J K K K K K K K K K K K K K K K K K K K K K K K K K K K K K K K K K K K K K K K K K K K K K K K K J 6                                                                                                                                                                                                                                                                                                                                                                                                                                                                                                                                                                                                                                                                                                                                                   ",
"                                                                                                                                                                                                                                                                                    # N K K K K K K K K K K K K K K K K K K K K K K K K K K K K K K K K K K K K K K K K K K K K K K N #                                                                                                                                                                                                                                                                                                                                                                                                                                                                                                                                                                                                                                                                                                                                                     ",
"                                                                                                                                                                                                                                                                                        5 F K K K K K K K K K K K K K K K K K K K K K K K K K K K K K K K K K K K K K K K K K K A 2                                                                                                                                                                                                                                                                                                                                                                                                                                                                                                                                                                                                                                                                                                                                                         ",
"                                                                                                                                                                                                                                                                                            5 A K K K K K K K K K K K K K K K K K K K K K K K K K K K K K K K K K K K K K K Z 5 .                                                                                                                                                                                                                                                                                                                                                                                                                                                                                                                                                                                                                                                                                                                                                           ",
"                                                                                                                                                                                                                                                                                              . 5 Z K K K K K K K K K K K K K K K K K K K K K K K K K K K K K K K K K K C 3                                                                                                                                                                                                                                                                                                                                                                                                                                                                                                                                                                                                                                                                                                                                                                 ",
"                                                                                                                                                                                                                                                                                                    # 9 D K K K K K K K K K K K K K K K K K K K K K K K K K K K K D 9 #                                                                                                                                                                                                                                                                                                                                                                                                                                                                                                                                                                                                                                                                                                                                                                     ",
"                                                                                                                                                                                                                                                                                                        . 1 8 C J K K K K K K K K K K K K K K K K K K K K J N 7 <                                                                                                                                                                                                                                                                                                                                                                                                                                                                                                                                                                                                                                                                                                                                                                           ",
"                                                                                                                                                                                                                                                                                                                o 2 7 n B F K K K K K K K K K K F N n 6 2 .                                                                                                                                                                                                                                                                                                                                                                                                                                                                                                                                                                                                                                                                                                                                                                                 ",
"                                                                                                                                                                                                                                                                                                                            o O # < 1 1 # # O o                                                                                                                                                                                                                                                                                                                                                                                                                                                                                                                                                                                                                                                                                                                                                                                             ",
"                                                                                                                                                                                                                                                                                                                                                                                                                                                                                                                                                                                                                                                                                                                                                                                                                                                                                                                                                                                                                                                                                                                                            ",
"                                                                                                                                                                                                                                                                                                                                                                                                                                                                                                                                                                                                                                                                                                                                                                                                                                                                                                                                                                                                                                                                                                                                            ",
"                                                                                                                                                                                                                                                                                                                                                                                                                                                                                                                                                                                                                                                                                                                                                                                                                                                                                                                                                                                                                                                                                                                                            ",
"                                                                                                                                                                                                                                                                                                                                                                                                                                                                                                                                                                                                                                                                                                                                                                                                                                                                                                                                                                                                                                                                                                                                            ",
"                                                                                                                                                                                                                                                                                                                                                                                                                                                                                                                                                                                                                                                                                                                                                                                                                                                                                                                                                                                                                                                                                                                                            ",
"                                                                                                                                                                                                                                                                                                                                                                                                                                                                                                                                                                                                                                                                                                                                                                                                                                                                                                                                                                                                                                                                                                                                            ",
"                                                                                                                                                                                                                                                                                                                                                                                                                                                                                                                                                                                                                                                                                                                                                                                                                                                                                                                                                                                                                                                                                                                                            ",
"                                                                                                                                                                                                                                                                                                                                                                                                                                                                                                                                                                                                                                                                                                                                                                                                                                                                                                                                                                                                                                                                                                                                            ",
"                                                                                                                                                                                                                                                                                                                                                                                                                                                                                                                                                                                                                                                                                                                                                                                                                                                                                                                                                                                                                                                                                                                                            ",
"                                                                                                                                                                                                                                                                                                                                                                                                                                                                                                                                                                                                                                                                                                                                                                                                                                                                                                                                                                                                                                                                                                                                            ",
"                                                                                                                                                                                                                                                                                                                                                                                                                                                                                                                                                                                                                                                                                                                                                                                                                                                                                                                                                                                                                                                                                                                                            ",
"                                                                                                                                                                                                                                                                                                                                                                                                                                                                                                                                                                                                                                                                                                                                                                                                                                                                                                                                                                                                                                                                                                                                            ",
"                                                                                                                                                                                                                                                                                                                                                                                                                                                                                                                                                                                                                                                                                                                                                                                                                                                                                                                                                                                                                                                                                                                                            ",
"                                                                                                                                                                                                                                                                                                                                                                                                                                                                                                                                                                                                                                                                                                                                                                                                                                                                                                                                                                                                                                                                                                                                            ",
"                                                                                                                                                                                                                                                                                                                                                                                                                                                                                                                                                                                                                                                                                                                                                                                                                                                                                                                                                                                                                                                                                                                                            ",
"                                                                                                                                                                                                                                                                                                                                                                                                                                                                                                                                                                                                                                                                                                                                                                                                                                                                                                                                                                                                                                                                                                                                            ",
"                                                                                                                                                                                                                                                                                                                                                                                                                                                                                                                                                                                                                                                                                                                                                                                                                                                                                                                                                                                                                                                                                                                                            ",
"                                                                                                                                                                                                                                                                                                                                                                                                                                                                                                                                                                                                                                                                                                                                                                                                                                                                                                                                                                                                                                                                                                                                            ",
"                                                                                                                                                                                                                                                                                                                                                                                                                                                                                                                                                                                                                                                                                                                                                                                                                                                                                                                                                                                                                                                                                                                                            ",
"                                                                                                                                                                                                                                                                                                                                                                                                                                                                                                                                                                                                                                                                                                                                                                                                                                                                                                                                                                                                                                                                                                                                            ",
"                                                                                                                                                                                                                                                                                                                                                                                                                                                                                                                                                                                                                                                                                                                                                                                                                                                                                                                                                                                                                                                                                                                                            ",
"                                                                                                                                                                                                                                                                                                                                                                                                                                                                                                                                                                                                                                                                                                                                                                                                                                                                                                                                                                                                                                                                                                                                            ",
"                                                                                                                                                                                                                                                                                                                                                                                                                                                                                                                                                                                                                                                                                                                                                                                                                                                                                                                                                                                                                                                                                                                                            ",
"                                                                                                                                                                                                                                                                                                                                                                                                                                                                                                                                                                                                                                                                                                                                                                                                                                                                                                                                                                                                                                                                                                                                            ",
"                                                                                                                                                                                                                                                                                                                                                                                                                                                                                                                                                                                                                                                                                                                                                                                                                                                                                                                                                                                                                                                                                                                                            ",
"                                                                                                                                                                                                                                                                                                                                                                                                                                                                                                                                                                                                                                                                                                                                                                                                                                                                                                                                                                                                                                                                                                                                            ",
"                                                                                                                                                                                                                                                                                                                                                                                                                                                                                                                                                                                                                                                                                                                                                                                                                                                                                                                                                                                                                                                                                                                                            ",
"                                                                                                                                                                                                                                                                                                                                                                                                                                                                                                                                                                                                                                                                                                                                                                                                                                                                                                                                                                                                                                                                                                                                            ",
"                                                                                                                                                                                                                                                                                                                                                                                                                                                                                                                                                                                                                                                                                                                                                                                                                                                                                                                                                                                                                                                                                                                                            ",
"                                                                                                                                                                                                                                                                                                                                                                                                                                                                                                                                                                                                                                                                                                                                                                                                                                                                                                                                                                                                                                                                                                                                            ",
"                                                                                                                                                                                                                                                                                                                                                                                                                                                                                                                                                                                                                                                                                                                                                                                                                                                                                                                                                                                                                                                                                                                                            ",
"                                                                                                                                                                                                                                                                                                                                                                                                                                                                                                                                                                                                                                                                                                                                                                                                                                                                                                                                                                                                                                                                                                                                            ",
"                                                                                                                                                                                                                                                                                                                                                                                                                                                                                                                                                                                                                                                                                                                                                                                                                                                                                                                                                                                                                                                                                                                                            ",
"                                                                                                                                                                                                                                                                                                                                                                                                                                                                                                                                                                                                                                                                                                                                                                                                                                                                                                                                                                                                                                                                                                                                            ",
"                                                                                                                                                                                                                                                                                                                                                                                                                                                                                                                                                                                                                                                                                                                                                                                                                                                                                                                                                                                                                                                                                                                                            ",
"                                                                                                                                                                                                                                                                                                                                                                                                                                                                                                                                                                                                                                                                                                                                                                                                                                                                                                                                                                                                                                                                                                                                            ",
"                                                                                                                                                                                                                                                                                                                                                                                                                                                                                                                                                                                                                                                                                                                                                                                                                                                                                                                                                                                                                                                                                                                                            ",
"                                                                                                                                                                                                                                                                                                                                                                                                                                                                                                                                                                                                                                                                                                                                                                                                                                                                                                                                                                                                                                                                                                                                            ",
"                                                                                                                                                                                                                                                                                                                                                                                                                                                                                                                                                                                                                                                                                                                                                                                                                                                                                                                                                                                                                                                                                                                                            ",
"                                                                                                                                                                                                                                                                                                                                                                                                                                                                                                                                                                                                                                                                                                                                                                                                                                                                                                                                                                                                                                                                                                                                            ",
"                                                                                                                                                                                                                                                                                                                                                                                                                                                                                                                                                                                                                                                                                                                                                                                                                                                                                                                                                                                                                                                                                                                                            ",
"                                                                                                                                                                                                                                                                                                                                                                                                                                                                                                                                                                                                                                                                                                                                                                                                                                                                                                                                                                                                                                                                                                                                            ",
"                                                                                                                                                                                                                                                                                                                                                                                                                                                                                                                                                                                                                                                                                                                                                                                                                                                                                                                                                                                                                                                                                                                                            ",
"                                                                                                                                                                                                                                                                                                                                                                                                                                                                                                                                                                                                                                                                                                                                                                                                                                                                                                                                                                                                                                                                                                                                            ",
"                                                                                                                                                                                                                                                                                                                                                                                                                                                                                                                                                                                                                                                                                                                                                                                                                                                                                                                                                                                                                                                                                                                                            ",
"                                                                                                                                                                                                                                                                                                                                                                                                                                                                                                                                                                                                                                                                                                                                                                                                                                                                                                                                                                                                                                                                                                                                            ",
"                                                                                                                                                                                                                                                                                                                                                                                                                                                                                                                                                                                                                                                                                                                                                                                                                                                                                                                                                                                                                                                                                                                                            ",
"                                                                                                                                                                                                                                                                                                                                                                                                                                                                                                                                                                                                                                                                                                                                                                                                                                                                                                                                                                                                                                                                                                                                            ",
"                                                                                                                                                                                                                                                                                                                                                                                                                                                                                                                                                                                                                                                                                                                                                                                                                                                                                                                                                                                                                                                                                                                                            "
};
